(MILLING G CODE)
(T1 D=1. CR=0.5 - ZMIN=-5.5 - BALL END MILL)
G21
G40
G49
G80
G90
(-ATTENTION- PROPERTY SAFE RETRACTS IS SET TO CLEARANCE HEIGHT.)
(ENSURE THE CLEARANCE HEIGHT WILL CLEAR THE PART AND OR FIXTURES.)
(RAISE THE Z-AXIS TO A SAFE HEIGHT BEFORE STARTING THE PROGRAM.)
G0 B0. C0.

(FACE2)
T1 M6
S5000 M3
G17 G90 G94
G54
G0 B0. C0.
X104.61 Y-1.698
Z15.
G0 Z5.
G1 Z-0.4 F333.
G18 G3 X104.01 Z-1. R0.6 F1000.
G1 X-2.01
G17 G2 X-2.16 Y-1.548 R0.15
X-2.01 Y-1.399 R0.15
G1 X104.01
G3 X104.16 Y-1.249 R0.15
X104.01 Y-1.099 R0.15
G1 X-2.01
G2 X-2.16 Y-0.95 R0.15
X-2.01 Y-0.8 R0.15
G1 X104.01
G3 X104.16 Y-0.651 R0.15
X104.01 Y-0.501 R0.15
G1 X-2.01
G2 X-2.16 Y-0.352 R0.15
X-2.01 Y-0.202 R0.15
G1 X104.01
G3 X104.16 Y-0.052 R0.15
X104.01 Y0.097 R0.15
G1 X-2.01
G2 X-2.16 Y0.247 R0.15
X-2.01 Y0.396 R0.15
G1 X104.01
G3 X104.16 Y0.546 R0.15
X104.01 Y0.696 R0.15
G1 X-2.01
G2 X-2.16 Y0.845 R0.15
X-2.01 Y0.995 R0.15
G1 X104.01
G3 X104.16 Y1.144 R0.15
X104.01 Y1.294 R0.15
G1 X-2.01
G2 X-2.16 Y1.444 R0.15
X-2.01 Y1.593 R0.15
G1 X104.01
G3 X104.16 Y1.743 R0.15
X104.01 Y1.892 R0.15
G1 X-2.01
G2 X-2.16 Y2.042 R0.15
X-2.01 Y2.192 R0.15
G1 X104.01
G3 X104.16 Y2.341 R0.15
X104.01 Y2.491 R0.15
G1 X-2.01
G2 X-2.16 Y2.64 R0.15
X-2.01 Y2.79 R0.15
G1 X104.01
G3 X104.16 Y2.939 R0.15
X104.01 Y3.089 R0.15
G1 X-2.01
G2 X-2.16 Y3.239 R0.15
X-2.01 Y3.388 R0.15
G1 X104.01
G3 X104.16 Y3.538 R0.15
X104.01 Y3.687 R0.15
G1 X-2.01
G2 X-2.16 Y3.837 R0.15
X-2.01 Y3.987 R0.15
G1 X104.01
G3 X104.16 Y4.136 R0.15
X104.01 Y4.286 R0.15
G1 X-2.01
G2 X-2.16 Y4.435 R0.15
X-2.01 Y4.585 R0.15
G1 X104.01
G3 X104.16 Y4.735 R0.15
X104.01 Y4.884 R0.15
G1 X-2.01
G2 X-2.16 Y5.034 R0.15
X-2.01 Y5.183 R0.15
G1 X104.01
G3 X104.16 Y5.333 R0.15
X104.01 Y5.483 R0.15
G1 X-2.01
G2 X-2.16 Y5.632 R0.15
X-2.01 Y5.782 R0.15
G1 X104.01
G3 X104.16 Y5.931 R0.15
X104.01 Y6.081 R0.15
G1 X-2.01
G2 X-2.16 Y6.23 R0.15
X-2.01 Y6.38 R0.15
G1 X104.01
G3 X104.16 Y6.53 R0.15
X104.01 Y6.679 R0.15
G1 X-2.01
G2 X-2.16 Y6.829 R0.15
X-2.01 Y6.978 R0.15
G1 X104.01
G3 X104.16 Y7.128 R0.15
X104.01 Y7.278 R0.15
G1 X-2.01
G2 X-2.16 Y7.427 R0.15
X-2.01 Y7.577 R0.15
G1 X104.01
G3 X104.16 Y7.726 R0.15
X104.01 Y7.876 R0.15
G1 X-2.01
G2 X-2.16 Y8.026 R0.15
X-2.01 Y8.175 R0.15
G1 X104.01
G3 X104.16 Y8.325 R0.15
X104.01 Y8.474 R0.15
G1 X-2.01
G2 X-2.16 Y8.624 R0.15
X-2.01 Y8.773 R0.15
G1 X104.01
G3 X104.16 Y8.923 R0.15
X104.01 Y9.073 R0.15
G1 X-2.01
G2 X-2.16 Y9.222 R0.15
X-2.01 Y9.372 R0.15
G1 X104.01
G3 X104.16 Y9.521 R0.15
X104.01 Y9.671 R0.15
G1 X-2.01
G2 X-2.16 Y9.821 R0.15
X-2.01 Y9.97 R0.15
G1 X104.01
G3 X104.16 Y10.12 R0.15
X104.01 Y10.269 R0.15
G1 X-2.01
G2 X-2.16 Y10.419 R0.15
X-2.01 Y10.569 R0.15
G1 X104.01
G3 X104.16 Y10.718 R0.15
X104.01 Y10.868 R0.15
G1 X-2.01
G2 X-2.16 Y11.017 R0.15
X-2.01 Y11.167 R0.15
G1 X104.01
G3 X104.16 Y11.317 R0.15
X104.01 Y11.466 R0.15
G1 X-2.01
G2 X-2.16 Y11.616 R0.15
X-2.01 Y11.765 R0.15
G1 X104.01
G3 X104.16 Y11.915 R0.15
X104.01 Y12.064 R0.15
G1 X-2.01
G2 X-2.16 Y12.214 R0.15
X-2.01 Y12.364 R0.15
G1 X104.01
G3 X104.16 Y12.513 R0.15
X104.01 Y12.663 R0.15
G1 X-2.01
G2 X-2.16 Y12.812 R0.15
X-2.01 Y12.962 R0.15
G1 X104.01
G3 X104.16 Y13.112 R0.15
X104.01 Y13.261 R0.15
G1 X-2.01
G2 X-2.16 Y13.411 R0.15
X-2.01 Y13.56 R0.15
G1 X104.01
G3 X104.16 Y13.71 R0.15
X104.01 Y13.86 R0.15
G1 X-2.01
G2 X-2.16 Y14.009 R0.15
X-2.01 Y14.159 R0.15
G1 X64.01
G3 X64.16 Y14.308 R0.15
X64.01 Y14.458 R0.15
G1 X-2.01
G2 X-2.16 Y14.608 R0.15
X-2.01 Y14.757 R0.15
G1 X64.01
G3 X64.16 Y14.907 R0.15
X64.01 Y15.056 R0.15
G1 X-2.01
G2 X-2.16 Y15.206 R0.15
X-2.01 Y15.355 R0.15
G1 X64.01
G3 X64.16 Y15.505 R0.15
X64.01 Y15.655 R0.15
G1 X-2.01
G2 X-2.16 Y15.804 R0.15
X-2.01 Y15.954 R0.15
G1 X64.01
G3 X64.16 Y16.103 R0.15
X64.01 Y16.253 R0.15
G1 X-2.01
G2 X-2.16 Y16.403 R0.15
X-2.01 Y16.552 R0.15
G1 X64.01
G3 X64.16 Y16.702 R0.15
X64.01 Y16.851 R0.15
G1 X-2.01
G2 X-2.16 Y17.001 R0.15
X-2.01 Y17.151 R0.15
G1 X64.01
G3 X64.16 Y17.3 R0.15
X64.01 Y17.45 R0.15
G1 X-2.01
G2 X-2.16 Y17.599 R0.15
X-2.01 Y17.749 R0.15
G1 X64.01
G3 X64.16 Y17.898 R0.15
X64.01 Y18.048 R0.15
G1 X-2.01
G2 X-2.16 Y18.198 R0.15
X-2.01 Y18.347 R0.15
G1 X64.01
G3 X64.16 Y18.497 R0.15
X64.01 Y18.646 R0.15
G1 X-2.01
G2 X-2.16 Y18.796 R0.15
X-2.01 Y18.946 R0.15
G1 X64.01
G3 X64.16 Y19.095 R0.15
X64.01 Y19.245 R0.15
G1 X-2.01
G2 X-2.16 Y19.394 R0.15
X-2.01 Y19.544 R0.15
G1 X64.01
G3 X64.16 Y19.694 R0.15
X64.01 Y19.843 R0.15
G1 X-2.01
G2 X-2.16 Y19.993 R0.15
X-2.01 Y20.142 R0.15
G1 X64.01
G3 X64.16 Y20.292 R0.15
X64.01 Y20.442 R0.15
G1 X-2.01
G2 X-2.16 Y20.591 R0.15
X-2.01 Y20.741 R0.15
G1 X64.01
G3 X64.16 Y20.89 R0.15
X64.01 Y21.04 R0.15
G1 X-2.01
G2 X-2.16 Y21.189 R0.15
X-2.01 Y21.339 R0.15
G1 X64.01
G3 X64.16 Y21.489 R0.15
X64.01 Y21.638 R0.15
G1 X-2.01
G2 X-2.16 Y21.788 R0.15
X-2.01 Y21.937 R0.15
G1 X64.01
G3 X64.16 Y22.087 R0.15
X64.01 Y22.237 R0.15
G1 X-2.01
G2 X-2.16 Y22.386 R0.15
X-2.01 Y22.536 R0.15
G1 X64.01
G3 X64.16 Y22.685 R0.15
X64.01 Y22.835 R0.15
G1 X-2.01
G2 X-2.16 Y22.985 R0.15
X-2.01 Y23.134 R0.15
G1 X64.01
G3 X64.16 Y23.284 R0.15
X64.01 Y23.433 R0.15
G1 X-2.01
G2 X-2.16 Y23.583 R0.15
X-2.01 Y23.733 R0.15
G1 X64.01
G3 X64.16 Y23.882 R0.15
X64.01 Y24.032 R0.15
G1 X-2.01
G2 X-2.16 Y24.181 R0.15
X-2.01 Y24.331 R0.15
G1 X64.01
G3 X64.16 Y24.48 R0.15
X64.01 Y24.63 R0.15
G1 X-2.01
G2 X-2.16 Y24.78 R0.15
X-2.01 Y24.929 R0.15
G1 X64.01
G3 X64.16 Y25.079 R0.15
X64.01 Y25.228 R0.15
G1 X-2.01
G2 X-2.16 Y25.378 R0.15
X-2.01 Y25.528 R0.15
G1 X64.01
G3 X64.16 Y25.677 R0.15
X64.01 Y25.827 R0.15
G1 X-2.01
G2 X-2.16 Y25.976 R0.15
X-2.01 Y26.126 R0.15
G1 X64.01
G3 X64.16 Y26.276 R0.15
X64.01 Y26.425 R0.15
G1 X-2.01
G2 X-2.16 Y26.575 R0.15
X-2.01 Y26.724 R0.15
G1 X64.01
G3 X64.16 Y26.874 R0.15
X64.01 Y27.023 R0.15
G1 X-2.01
G2 X-2.16 Y27.173 R0.15
X-2.01 Y27.323 R0.15
G1 X64.01
G3 X64.16 Y27.472 R0.15
X64.01 Y27.622 R0.15
G1 X-2.01
G2 X-2.16 Y27.771 R0.15
X-2.01 Y27.921 R0.15
G1 X64.01
G18 G2 X64.61 Z-0.4 R0.6
G0 Z5.
X104.9 Y14.159
G1 Z-0.4 F333.
G3 X104.3 Z-1. R0.6 F1000.
G1 X104.01
X87.99
G3 X87.39 Z-0.4 R0.6
G0 Z5.
X104.9 Y14.458
G1 Z-0.4 F333.
G3 X104.3 Z-1. R0.6 F1000.
G1 X104.01
X87.99
G17 G2 X87.84 Y14.608 R0.15
X87.99 Y14.757 R0.15
G1 X104.01
G3 X104.16 Y14.907 R0.15
X104.01 Y15.056 R0.15
G1 X87.99
G2 X87.84 Y15.206 R0.15
X87.99 Y15.355 R0.15
G1 X104.01
G3 X104.16 Y15.505 R0.15
X104.01 Y15.655 R0.15
G1 X87.99
G2 X87.84 Y15.804 R0.15
X87.99 Y15.954 R0.15
G1 X104.01
G3 X104.16 Y16.103 R0.15
X104.01 Y16.253 R0.15
G1 X87.99
G2 X87.84 Y16.403 R0.15
X87.99 Y16.552 R0.15
G1 X104.01
G3 X104.16 Y16.702 R0.15
X104.01 Y16.851 R0.15
G1 X87.99
G2 X87.84 Y17.001 R0.15
X87.99 Y17.151 R0.15
G1 X104.01
G3 X104.16 Y17.3 R0.15
X104.01 Y17.45 R0.15
G1 X87.99
G2 X87.84 Y17.599 R0.15
X87.99 Y17.749 R0.15
G1 X104.01
G3 X104.16 Y17.898 R0.15
X104.01 Y18.048 R0.15
G1 X87.99
G2 X87.84 Y18.198 R0.15
X87.99 Y18.347 R0.15
G1 X104.01
G3 X104.16 Y18.497 R0.15
X104.01 Y18.646 R0.15
G1 X87.99
G2 X87.84 Y18.796 R0.15
X87.99 Y18.946 R0.15
G1 X104.01
G3 X104.16 Y19.095 R0.15
X104.01 Y19.245 R0.15
G1 X87.99
G2 X87.84 Y19.394 R0.15
X87.99 Y19.544 R0.15
G1 X104.01
G3 X104.16 Y19.694 R0.15
X104.01 Y19.843 R0.15
G1 X87.99
G2 X87.84 Y19.993 R0.15
X87.99 Y20.142 R0.15
G1 X104.01
G3 X104.16 Y20.292 R0.15
X104.01 Y20.442 R0.15
G1 X87.99
G2 X87.84 Y20.591 R0.15
X87.99 Y20.741 R0.15
G1 X104.01
G3 X104.16 Y20.89 R0.15
X104.01 Y21.04 R0.15
G1 X87.99
G2 X87.84 Y21.189 R0.15
X87.99 Y21.339 R0.15
G1 X104.01
G3 X104.16 Y21.489 R0.15
X104.01 Y21.638 R0.15
G1 X87.99
G2 X87.84 Y21.788 R0.15
X87.99 Y21.937 R0.15
G1 X104.01
G3 X104.16 Y22.087 R0.15
X104.01 Y22.237 R0.15
G1 X87.99
G2 X87.84 Y22.386 R0.15
X87.99 Y22.536 R0.15
G1 X104.01
G3 X104.16 Y22.685 R0.15
X104.01 Y22.835 R0.15
G1 X87.99
G2 X87.84 Y22.985 R0.15
X87.99 Y23.134 R0.15
G1 X104.01
G3 X104.16 Y23.284 R0.15
X104.01 Y23.433 R0.15
G1 X87.99
G2 X87.84 Y23.583 R0.15
X87.99 Y23.733 R0.15
G1 X104.01
G3 X104.16 Y23.882 R0.15
X104.01 Y24.032 R0.15
G1 X87.99
G2 X87.84 Y24.181 R0.15
X87.99 Y24.331 R0.15
G1 X104.01
G3 X104.16 Y24.48 R0.15
X104.01 Y24.63 R0.15
G1 X87.99
G2 X87.84 Y24.78 R0.15
X87.99 Y24.929 R0.15
G1 X104.01
G3 X104.16 Y25.079 R0.15
X104.01 Y25.228 R0.15
G1 X87.99
G2 X87.84 Y25.378 R0.15
X87.99 Y25.528 R0.15
G1 X104.01
G3 X104.16 Y25.677 R0.15
X104.01 Y25.827 R0.15
G1 X87.99
G2 X87.84 Y25.976 R0.15
X87.99 Y26.126 R0.15
G1 X104.01
G3 X104.16 Y26.276 R0.15
X104.01 Y26.425 R0.15
G1 X87.99
G2 X87.84 Y26.575 R0.15
X87.99 Y26.724 R0.15
G1 X104.01
G3 X104.16 Y26.874 R0.15
X104.01 Y27.023 R0.15
G1 X87.99
G2 X87.84 Y27.173 R0.15
X87.99 Y27.323 R0.15
G1 X104.01
G3 X104.16 Y27.472 R0.15
X104.01 Y27.622 R0.15
G1 X87.99
G2 X87.84 Y27.771 R0.15
X87.99 Y27.921 R0.15
G1 X104.01
G3 X104.16 Y28.071 R0.15
X104.01 Y28.22 R0.15
G1 X-2.01
G2 X-2.16 Y28.37 R0.15
X-2.01 Y28.519 R0.15
G1 X104.01
G3 X104.16 Y28.669 R0.15
X104.01 Y28.819 R0.15
G1 X-2.01
G2 X-2.16 Y28.968 R0.15
X-2.01 Y29.118 R0.15
G1 X104.01
G3 X104.16 Y29.267 R0.15
X104.01 Y29.417 R0.15
G1 X-2.01
G2 X-2.16 Y29.567 R0.15
X-2.01 Y29.716 R0.15
G1 X104.01
G3 X104.16 Y29.866 R0.15
X104.01 Y30.015 R0.15
G1 X-2.01
G2 X-2.16 Y30.165 R0.15
X-2.01 Y30.314 R0.15
G1 X104.01
G3 X104.16 Y30.464 R0.15
X104.01 Y30.614 R0.15
G1 X-2.01
G2 X-2.16 Y30.763 R0.15
X-2.01 Y30.913 R0.15
G1 X104.01
G3 X104.16 Y31.062 R0.15
X104.01 Y31.212 R0.15
G1 X-2.01
G2 X-2.16 Y31.362 R0.15
X-2.01 Y31.511 R0.15
G1 X104.01
G3 X104.16 Y31.661 R0.15
X104.01 Y31.81 R0.15
G1 X-2.01
G2 X-2.16 Y31.96 R0.15
X-2.01 Y32.11 R0.15
G1 X104.01
G3 X104.16 Y32.259 R0.15
X104.01 Y32.409 R0.15
G1 X-2.01
G2 X-2.16 Y32.558 R0.15
X-2.01 Y32.708 R0.15
G1 X104.01
G3 X104.16 Y32.858 R0.15
X104.01 Y33.007 R0.15
G1 X-2.01
G2 X-2.16 Y33.157 R0.15
X-2.01 Y33.306 R0.15
G1 X104.01
G3 X104.16 Y33.456 R0.15
X104.01 Y33.605 R0.15
G1 X-2.01
G2 X-2.16 Y33.755 R0.15
X-2.01 Y33.905 R0.15
G1 X104.01
G3 X104.16 Y34.054 R0.15
X104.01 Y34.204 R0.15
G1 X-2.01
G2 X-2.16 Y34.353 R0.15
X-2.01 Y34.503 R0.15
G1 X104.01
G3 X104.16 Y34.653 R0.15
X104.01 Y34.802 R0.15
G1 X-2.01
G2 X-2.16 Y34.952 R0.15
X-2.01 Y35.101 R0.15
G1 X104.01
G3 X104.16 Y35.251 R0.15
X104.01 Y35.401 R0.15
G1 X-2.01
G2 X-2.16 Y35.55 R0.15
X-2.01 Y35.7 R0.15
G1 X104.01
G3 X104.16 Y35.849 R0.15
X104.01 Y35.999 R0.15
G1 X-2.01
G2 X-2.16 Y36.148 R0.15
X-2.01 Y36.298 R0.15
G1 X104.01
G3 X104.16 Y36.448 R0.15
X104.01 Y36.597 R0.15
G1 X-2.01
G2 X-2.16 Y36.747 R0.15
X-2.01 Y36.896 R0.15
G1 X104.01
G3 X104.16 Y37.046 R0.15
X104.01 Y37.196 R0.15
G1 X-2.01
G2 X-2.16 Y37.345 R0.15
X-2.01 Y37.495 R0.15
G1 X104.01
G3 X104.16 Y37.644 R0.15
X104.01 Y37.794 R0.15
G1 X-2.01
G2 X-2.16 Y37.944 R0.15
X-2.01 Y38.093 R0.15
G1 X104.01
G3 X104.16 Y38.243 R0.15
X104.01 Y38.392 R0.15
G1 X-2.01
G2 X-2.16 Y38.542 R0.15
X-2.01 Y38.692 R0.15
G1 X104.01
G3 X104.16 Y38.841 R0.15
X104.01 Y38.991 R0.15
G1 X-2.01
G2 X-2.16 Y39.14 R0.15
X-2.01 Y39.29 R0.15
G1 X104.01
G3 X104.16 Y39.439 R0.15
X104.01 Y39.589 R0.15
G1 X-2.01
G2 X-2.16 Y39.739 R0.15
X-2.01 Y39.888 R0.15
G1 X104.01
G3 X104.16 Y40.038 R0.15
X104.01 Y40.187 R0.15
G1 X-2.01
G2 X-2.16 Y40.337 R0.15
X-2.01 Y40.487 R0.15
G1 X104.01
G3 X104.16 Y40.636 R0.15
X104.01 Y40.786 R0.15
G1 X-2.01
G2 X-2.16 Y40.935 R0.15
X-2.01 Y41.085 R0.15
G1 X104.01
G3 X104.16 Y41.235 R0.15
X104.01 Y41.384 R0.15
G1 X-2.01
G2 X-2.16 Y41.534 R0.15
X-2.01 Y41.683 R0.15
G1 X104.01
G3 X104.16 Y41.833 R0.15
X104.01 Y41.983 R0.15
G1 X-2.01
G2 X-2.16 Y42.132 R0.15
X-2.01 Y42.282 R0.15
G1 X104.01
G3 X104.16 Y42.431 R0.15
X104.01 Y42.581 R0.15
G1 X-2.01
G2 X-2.16 Y42.73 R0.15
X-2.01 Y42.88 R0.15
G1 X104.01
G3 X104.16 Y43.03 R0.15
X104.01 Y43.179 R0.15
G1 X-2.01
G2 X-2.16 Y43.329 R0.15
X-2.01 Y43.478 R0.15
G1 X104.01
G3 X104.16 Y43.628 R0.15
X104.01 Y43.778 R0.15
G1 X-2.01
G2 X-2.16 Y43.927 R0.15
X-2.01 Y44.077 R0.15
G1 X14.01
G3 X14.16 Y44.226 R0.15
X14.01 Y44.376 R0.15
G1 X-2.01
G2 X-2.16 Y44.526 R0.15
X-2.01 Y44.675 R0.15
G1 X14.01
G3 X14.16 Y44.825 R0.15
X14.01 Y44.974 R0.15
G1 X-2.01
G2 X-2.16 Y45.124 R0.15
X-2.01 Y45.273 R0.15
G1 X14.01
G3 X14.16 Y45.423 R0.15
X14.01 Y45.573 R0.15
G1 X-2.01
G2 X-2.16 Y45.722 R0.15
X-2.01 Y45.872 R0.15
G1 X14.01
G3 X14.16 Y46.021 R0.15
X14.01 Y46.171 R0.15
G1 X-2.01
G2 X-2.16 Y46.321 R0.15
X-2.01 Y46.47 R0.15
G1 X14.01
G3 X14.16 Y46.62 R0.15
X14.01 Y46.769 R0.15
G1 X-2.01
G2 X-2.16 Y46.919 R0.15
X-2.01 Y47.069 R0.15
G1 X14.01
G3 X14.16 Y47.218 R0.15
X14.01 Y47.368 R0.15
G1 X-2.01
G2 X-2.16 Y47.517 R0.15
X-2.01 Y47.667 R0.15
G1 X14.01
G3 X14.16 Y47.817 R0.15
X14.01 Y47.966 R0.15
G1 X-2.01
G2 X-2.16 Y48.116 R0.15
X-2.01 Y48.265 R0.15
G1 X14.01
G3 X14.16 Y48.415 R0.15
X14.01 Y48.564 R0.15
G1 X-2.01
G2 X-2.16 Y48.714 R0.15
X-2.01 Y48.864 R0.15
G1 X14.01
G3 X14.16 Y49.013 R0.15
X14.01 Y49.163 R0.15
G1 X-2.01
G2 X-2.16 Y49.312 R0.15
X-2.01 Y49.462 R0.15
G1 X14.01
G3 X14.16 Y49.612 R0.15
X14.01 Y49.761 R0.15
G1 X-2.01
G2 X-2.16 Y49.911 R0.15
X-2.01 Y50.06 R0.15
G1 X14.01
G3 X14.16 Y50.21 R0.15
X14.01 Y50.36 R0.15
G1 X-2.01
G2 X-2.16 Y50.509 R0.15
X-2.01 Y50.659 R0.15
G1 X14.01
G3 X14.16 Y50.808 R0.15
X14.01 Y50.958 R0.15
G1 X-2.01
G2 X-2.16 Y51.108 R0.15
X-2.01 Y51.257 R0.15
G1 X14.01
G3 X14.16 Y51.407 R0.15
X14.01 Y51.556 R0.15
G1 X-2.01
G2 X-2.16 Y51.706 R0.15
X-2.01 Y51.855 R0.15
G1 X14.01
G3 X14.16 Y52.005 R0.15
X14.01 Y52.155 R0.15
G1 X-2.01
G2 X-2.16 Y52.304 R0.15
X-2.01 Y52.454 R0.15
G1 X14.01
G3 X14.16 Y52.603 R0.15
X14.01 Y52.753 R0.15
G1 X-2.01
G2 X-2.16 Y52.903 R0.15
X-2.01 Y53.052 R0.15
G1 X14.01
G3 X14.16 Y53.202 R0.15
X14.01 Y53.351 R0.15
G1 X-2.01
G2 X-2.16 Y53.501 R0.15
X-2.01 Y53.651 R0.15
G1 X14.01
G3 X14.16 Y53.8 R0.15
X14.01 Y53.95 R0.15
G1 X-2.01
G2 X-2.16 Y54.099 R0.15
X-2.01 Y54.249 R0.15
G1 X14.01
G3 X14.16 Y54.398 R0.15
X14.01 Y54.548 R0.15
G1 X-2.01
G2 X-2.16 Y54.698 R0.15
X-2.01 Y54.847 R0.15
G1 X14.01
G3 X14.16 Y54.997 R0.15
X14.01 Y55.146 R0.15
G1 X-2.01
G2 X-2.16 Y55.296 R0.15
X-2.01 Y55.446 R0.15
G1 X14.01
G3 X14.16 Y55.595 R0.15
X14.01 Y55.745 R0.15
G1 X-2.01
G2 X-2.16 Y55.894 R0.15
X-2.01 Y56.044 R0.15
G1 X14.01
G3 X14.16 Y56.194 R0.15
X14.01 Y56.343 R0.15
G1 X-2.01
G2 X-2.16 Y56.493 R0.15
X-2.01 Y56.642 R0.15
G1 X14.01
G3 X14.16 Y56.792 R0.15
X14.01 Y56.942 R0.15
G1 X-2.01
G2 X-2.16 Y57.091 R0.15
X-2.01 Y57.241 R0.15
G1 X14.01
G3 X14.16 Y57.39 R0.15
X14.01 Y57.54 R0.15
G1 X-2.01
G2 X-2.16 Y57.689 R0.15
X-2.01 Y57.839 R0.15
G1 X14.01
G18 G2 X14.61 Z-0.4 R0.6
G0 Z5.
X104.9 Y44.077
G1 Z-0.4 F333.
G3 X104.3 Z-1. R0.6 F1000.
G1 X104.01
X37.99
G3 X37.39 Z-0.4 R0.6
G0 Z5.
X104.9 Y44.376
G1 Z-0.4 F333.
G3 X104.3 Z-1. R0.6 F1000.
G1 X104.01
X37.99
G17 G2 X37.84 Y44.526 R0.15
X37.99 Y44.675 R0.15
G1 X104.01
G3 X104.16 Y44.825 R0.15
X104.01 Y44.974 R0.15
G1 X37.99
G2 X37.84 Y45.124 R0.15
X37.99 Y45.273 R0.15
G1 X104.01
G3 X104.16 Y45.423 R0.15
X104.01 Y45.573 R0.15
G1 X37.99
G2 X37.84 Y45.722 R0.15
X37.99 Y45.872 R0.15
G1 X104.01
G3 X104.16 Y46.021 R0.15
X104.01 Y46.171 R0.15
G1 X37.99
G2 X37.84 Y46.321 R0.15
X37.99 Y46.47 R0.15
G1 X104.01
G3 X104.16 Y46.62 R0.15
X104.01 Y46.769 R0.15
G1 X37.99
G2 X37.84 Y46.919 R0.15
X37.99 Y47.069 R0.15
G1 X104.01
G3 X104.16 Y47.218 R0.15
X104.01 Y47.368 R0.15
G1 X37.99
G2 X37.84 Y47.517 R0.15
X37.99 Y47.667 R0.15
G1 X104.01
G3 X104.16 Y47.817 R0.15
X104.01 Y47.966 R0.15
G1 X37.99
G2 X37.84 Y48.116 R0.15
X37.99 Y48.265 R0.15
G1 X104.01
G3 X104.16 Y48.415 R0.15
X104.01 Y48.564 R0.15
G1 X37.99
G2 X37.84 Y48.714 R0.15
X37.99 Y48.864 R0.15
G1 X104.01
G3 X104.16 Y49.013 R0.15
X104.01 Y49.163 R0.15
G1 X37.99
G2 X37.84 Y49.312 R0.15
X37.99 Y49.462 R0.15
G1 X104.01
G3 X104.16 Y49.612 R0.15
X104.01 Y49.761 R0.15
G1 X37.99
G2 X37.84 Y49.911 R0.15
X37.99 Y50.06 R0.15
G1 X104.01
G3 X104.16 Y50.21 R0.15
X104.01 Y50.36 R0.15
G1 X37.99
G2 X37.84 Y50.509 R0.15
X37.99 Y50.659 R0.15
G1 X104.01
G3 X104.16 Y50.808 R0.15
X104.01 Y50.958 R0.15
G1 X37.99
G2 X37.84 Y51.108 R0.15
X37.99 Y51.257 R0.15
G1 X104.01
G3 X104.16 Y51.407 R0.15
X104.01 Y51.556 R0.15
G1 X37.99
G2 X37.84 Y51.706 R0.15
X37.99 Y51.855 R0.15
G1 X104.01
G3 X104.16 Y52.005 R0.15
X104.01 Y52.155 R0.15
G1 X37.99
G2 X37.84 Y52.304 R0.15
X37.99 Y52.454 R0.15
G1 X104.01
G3 X104.16 Y52.603 R0.15
X104.01 Y52.753 R0.15
G1 X37.99
G2 X37.84 Y52.903 R0.15
X37.99 Y53.052 R0.15
G1 X104.01
G3 X104.16 Y53.202 R0.15
X104.01 Y53.351 R0.15
G1 X37.99
G2 X37.84 Y53.501 R0.15
X37.99 Y53.651 R0.15
G1 X104.01
G3 X104.16 Y53.8 R0.15
X104.01 Y53.95 R0.15
G1 X37.99
G2 X37.84 Y54.099 R0.15
X37.99 Y54.249 R0.15
G1 X104.01
G3 X104.16 Y54.398 R0.15
X104.01 Y54.548 R0.15
G1 X37.99
G2 X37.84 Y54.698 R0.15
X37.99 Y54.847 R0.15
G1 X104.01
G3 X104.16 Y54.997 R0.15
X104.01 Y55.146 R0.15
G1 X37.99
G2 X37.84 Y55.296 R0.15
X37.99 Y55.446 R0.15
G1 X104.01
G3 X104.16 Y55.595 R0.15
X104.01 Y55.745 R0.15
G1 X37.99
G2 X37.84 Y55.894 R0.15
X37.99 Y56.044 R0.15
G1 X104.01
G3 X104.16 Y56.194 R0.15
X104.01 Y56.343 R0.15
G1 X37.99
G2 X37.84 Y56.493 R0.15
X37.99 Y56.642 R0.15
G1 X104.01
G3 X104.16 Y56.792 R0.15
X104.01 Y56.942 R0.15
G1 X37.99
G2 X37.84 Y57.091 R0.15
X37.99 Y57.241 R0.15
G1 X104.01
G3 X104.16 Y57.39 R0.15
X104.01 Y57.54 R0.15
G1 X37.99
G2 X37.84 Y57.689 R0.15
X37.99 Y57.839 R0.15
G1 X104.01
G3 X104.16 Y57.989 R0.15
X104.01 Y58.138 R0.15
G1 X-2.01
G2 X-2.16 Y58.288 R0.15
X-2.01 Y58.437 R0.15
G1 X104.01
G3 X104.16 Y58.587 R0.15
X104.01 Y58.737 R0.15
G1 X-2.01
G2 X-2.16 Y58.886 R0.15
X-2.01 Y59.036 R0.15
G1 X104.01
G3 X104.16 Y59.185 R0.15
X104.01 Y59.335 R0.15
G1 X-2.01
G2 X-2.16 Y59.485 R0.15
X-2.01 Y59.634 R0.15
G1 X104.01
G3 X104.16 Y59.784 R0.15
X104.01 Y59.933 R0.15
G1 X-2.01
G2 X-2.16 Y60.083 R0.15
X-2.01 Y60.233 R0.15
G1 X104.01
G3 X104.16 Y60.382 R0.15
X104.01 Y60.532 R0.15
G1 X-2.01
G2 X-2.16 Y60.681 R0.15
X-2.01 Y60.831 R0.15
G1 X104.01
G3 X104.16 Y60.98 R0.15
X104.01 Y61.13 R0.15
G1 X-2.01
G2 X-2.16 Y61.28 R0.15
X-2.01 Y61.429 R0.15
G1 X104.01
G3 X104.16 Y61.579 R0.15
X104.01 Y61.728 R0.15
G1 X-2.01
G2 X-2.16 Y61.878 R0.15
X-2.01 Y62.028 R0.15
G1 X104.01
G3 X104.16 Y62.177 R0.15
X104.01 Y62.327 R0.15
G1 X-2.01
G2 X-2.16 Y62.476 R0.15
X-2.01 Y62.626 R0.15
G1 X104.01
G3 X104.16 Y62.776 R0.15
X104.01 Y62.925 R0.15
G1 X-2.01
G2 X-2.16 Y63.075 R0.15
X-2.01 Y63.224 R0.15
G1 X104.01
G3 X104.16 Y63.374 R0.15
X104.01 Y63.523 R0.15
G1 X-2.01
G2 X-2.16 Y63.673 R0.15
X-2.01 Y63.823 R0.15
G1 X104.01
G3 X104.16 Y63.972 R0.15
X104.01 Y64.122 R0.15
G1 X-2.01
G2 X-2.16 Y64.271 R0.15
X-2.01 Y64.421 R0.15
G1 X104.01
G3 X104.16 Y64.571 R0.15
X104.01 Y64.72 R0.15
G1 X-2.01
G2 X-2.16 Y64.87 R0.15
X-2.01 Y65.019 R0.15
G1 X104.01
G3 X104.16 Y65.169 R0.15
X104.01 Y65.319 R0.15
G1 X-2.01
G2 X-2.16 Y65.468 R0.15
X-2.01 Y65.618 R0.15
G1 X104.01
G3 X104.16 Y65.767 R0.15
X104.01 Y65.917 R0.15
G1 X-2.01
G2 X-2.16 Y66.067 R0.15
X-2.01 Y66.216 R0.15
G1 X104.01
G3 X104.16 Y66.366 R0.15
X104.01 Y66.515 R0.15
G1 X-2.01
G2 X-2.16 Y66.665 R0.15
X-2.01 Y66.814 R0.15
G1 X104.01
G3 X104.16 Y66.964 R0.15
X104.01 Y67.114 R0.15
G1 X-2.01
G2 X-2.16 Y67.263 R0.15
X-2.01 Y67.413 R0.15
G1 X104.01
G3 X104.16 Y67.562 R0.15
X104.01 Y67.712 R0.15
G1 X-2.01
G2 X-2.16 Y67.862 R0.15
X-2.01 Y68.011 R0.15
G1 X104.01
G3 X104.16 Y68.161 R0.15
X104.01 Y68.31 R0.15
G1 X-2.01
G2 X-2.16 Y68.46 R0.15
X-2.01 Y68.61 R0.15
G1 X104.01
G3 X104.16 Y68.759 R0.15
X104.01 Y68.909 R0.15
G1 X-2.01
G2 X-2.16 Y69.058 R0.15
X-2.01 Y69.208 R0.15
G1 X104.01
G3 X104.16 Y69.358 R0.15
X104.01 Y69.507 R0.15
G1 X-2.01
G2 X-2.16 Y69.657 R0.15
X-2.01 Y69.806 R0.15
G1 X104.01
G3 X104.16 Y69.956 R0.15
X104.01 Y70.105 R0.15
G1 X-2.01
G2 X-2.16 Y70.255 R0.15
X-2.01 Y70.405 R0.15
G1 X104.01
G3 X104.16 Y70.554 R0.15
X104.01 Y70.704 R0.15
G1 X-2.01
G2 X-2.16 Y70.853 R0.15
X-2.01 Y71.003 R0.15
G1 X104.01
G18 G2 X104.61 Z-0.4 R0.6
G0 Z15.
G17

(2D ADAPTIVE1)
G0 X31.148 Y51.19
Z15.
Z5.
Z2.5
G3 X30.774 Y51.184 Z2.485 R0.264 F333.
X30.708 Y51.067 Z2.481 R0.264
X30.896 Y50.745 Z2.466 R0.264
X31.03 Y50.744 Z2.462 R0.264
X31.219 Y51.066 Z2.447 R0.264
X31.154 Y51.183 Z2.442 R0.264
X30.782 Y51.19 Z2.428 R0.263
X30.712 Y51.076 Z2.423 R0.263
X30.888 Y50.748 Z2.409 R0.263
X31.021 Y50.743 Z2.404 R0.263
X31.22 Y51.057 Z2.389 R0.263
X31.16 Y51.175 Z2.385 R0.263
X30.789 Y51.196 Z2.37 R0.262
X30.716 Y51.085 Z2.365 R0.262
X30.879 Y50.752 Z2.351 R0.262
X31.011 Y50.742 Z2.346 R0.262
X31.221 Y51.047 Z2.332 R0.262
X31.165 Y51.167 Z2.327 R0.262
X30.797 Y51.201 Z2.312 R0.261
X30.72 Y51.094 Z2.308 R0.261
X30.87 Y50.756 Z2.293 R0.261
X31.002 Y50.742 Z2.288 R0.261
X31.222 Y51.038 Z2.274 R0.261
X31.17 Y51.159 Z2.269 R0.261
X30.805 Y51.206 Z2.255 R0.26
X30.724 Y51.102 Z2.25 R0.26
X30.862 Y50.761 Z2.235 R0.26
X30.992 Y50.742 Z2.231 R0.26
X31.222 Y51.028 Z2.216 R0.26
X31.175 Y51.151 Z2.212 R0.26
X30.813 Y51.211 Z2.197 R0.259
X30.729 Y51.11 Z2.192 R0.259
X30.854 Y50.765 Z2.178 R0.259
X30.983 Y50.742 Z2.173 R0.259
X31.222 Y51.019 Z2.159 R0.259
X31.18 Y51.143 Z2.154 R0.259
X30.821 Y51.215 Z2.139 R0.258
X30.734 Y51.118 Z2.135 R0.258
X30.846 Y50.77 Z2.12 R0.258
X30.974 Y50.742 Z2.115 R0.258
X31.221 Y51.01 Z2.101 R0.258
X31.184 Y51.134 Z2.096 R0.258
X30.83 Y51.219 Z2.082 R0.257
X30.739 Y51.126 Z2.077 R0.257
X30.838 Y50.776 Z2.062 R0.257
X30.964 Y50.743 Z2.058 R0.257
X31.221 Y51. Z2.043 R0.257
X31.187 Y51.126 Z2.038 R0.257
X30.838 Y51.223 Z2.024 R0.256
X30.745 Y51.133 Z2.019 R0.256
X30.831 Y50.781 Z2.005 R0.256
X30.955 Y50.744 Z2. R0.256
X31.219 Y50.991 Z1.985 R0.256
X31.191 Y51.117 Z1.981 R0.256
X30.847 Y51.227 Z1.966 R0.255
X30.751 Y51.14 Z1.962 R0.255
X30.824 Y50.787 Z1.947 R0.255
X30.946 Y50.746 Z1.942 R0.255
X31.218 Y50.982 Z1.928 R0.255
X31.194 Y51.109 Z1.923 R0.255
X30.855 Y51.23 Z1.909 R0.254
X30.757 Y51.147 Z1.904 R0.254
X30.817 Y50.793 Z1.889 R0.254
X30.937 Y50.748 Z1.885 R0.254
X31.216 Y50.973 Z1.87 R0.254
X31.197 Y51.1 Z1.865 R0.254
X30.864 Y51.233 Z1.851 R0.253
X30.763 Y51.154 Z1.846 R0.253
X30.81 Y50.799 Z1.832 R0.253
X30.928 Y50.75 Z1.827 R0.253
X31.214 Y50.964 Z1.812 R0.253
X31.199 Y51.091 Z1.808 R0.253
X30.873 Y51.235 Z1.793 R0.252
X30.769 Y51.161 Z1.788 R0.252
X30.803 Y50.806 Z1.774 R0.252
X30.919 Y50.752 Z1.769 R0.252
X31.212 Y50.955 Z1.755 R0.252
X31.202 Y51.082 Z1.75 R0.252
X30.882 Y51.237 Z1.735 R0.251
X30.776 Y51.167 Z1.731 R0.251
X30.797 Y50.812 Z1.716 R0.251
X30.911 Y50.755 Z1.712 R0.251
X31.209 Y50.947 Z1.697 R0.251
X31.203 Y51.073 Z1.692 R0.251
X30.891 Y51.239 Z1.678 R0.25
X30.783 Y51.173 Z1.673 R0.25
X30.791 Y50.819 Z1.659 R0.25
X30.902 Y50.758 Z1.654 R0.25
X31.206 Y50.938 Z1.639 R0.25
X31.205 Y51.064 Z1.635 R0.25
X30.9 Y51.241 Z1.62 R0.249
X30.79 Y51.178 Z1.615 R0.249
X30.786 Y50.826 Z1.601 R0.249
X30.894 Y50.761 Z1.596 R0.249
X31.202 Y50.93 Z1.582 R0.249
X31.206 Y51.055 Z1.577 R0.249
X30.909 Y51.242 Z1.562 R0.248
X30.797 Y51.184 Z1.558 R0.248
X30.78 Y50.833 Z1.543 R0.248
X30.885 Y50.765 Z1.538 R0.248
X31.199 Y50.921 Z1.524 R0.248
X31.207 Y51.046 Z1.519 R0.248
X30.918 Y51.243 Z1.505 R0.247
X30.805 Y51.189 Z1.5 R0.247
X30.775 Y50.841 Z1.485 R0.247
X30.877 Y50.769 Z1.481 R0.247
X31.195 Y50.913 Z1.466 R0.247
X31.208 Y51.038 Z1.462 R0.247
X30.926 Y51.243 Z1.447 R0.246
X30.812 Y51.194 Z1.442 R0.246
X30.77 Y50.848 Z1.428 R0.246
X30.869 Y50.773 Z1.423 R0.246
X31.191 Y50.906 Z1.409 R0.246
X31.208 Y51.029 Z1.404 R0.246
X30.935 Y51.243 Z1.389 R0.245
X30.82 Y51.198 Z1.385 R0.245
X30.766 Y50.856 Z1.37 R0.245
X30.862 Y50.777 Z1.365 R0.245
X31.186 Y50.898 Z1.351 R0.245
X31.208 Y51.02 Z1.346 R0.245
X30.944 Y51.243 Z1.332 R0.244
X30.828 Y51.202 Z1.327 R0.244
X30.762 Y50.864 Z1.312 R0.244
X30.854 Y50.782 Z1.308 R0.244
X31.181 Y50.89 Z1.293 R0.244
X31.207 Y51.011 Z1.288 R0.244
X30.953 Y51.243 Z1.274 R0.243
X30.835 Y51.206 Z1.269 R0.243
X30.758 Y50.872 Z1.255 R0.243
X30.847 Y50.787 Z1.25 R0.243
X31.176 Y50.883 Z1.235 R0.243
X31.206 Y51.002 Z1.231 R0.243
X30.962 Y51.242 Z1.216 R0.242
X30.843 Y51.21 Z1.212 R0.242
X30.754 Y50.88 Z1.197 R0.242
X30.84 Y50.792 Z1.192 R0.242
X31.171 Y50.876 Z1.178 R0.242
X31.205 Y50.993 Z1.173 R0.242
X30.97 Y51.241 Z1.159 R0.241
X30.852 Y51.213 Z1.154 R0.241
X30.751 Y50.888 Z1.139 R0.241
X30.833 Y50.798 Z1.135 R0.241
X31.166 Y50.869 Z1.12 R0.241
X31.204 Y50.985 Z1.115 R0.241
X30.979 Y51.24 Z1.101 R0.24
X30.86 Y51.216 Z1.096 R0.24
X30.748 Y50.896 Z1.082 R0.24
X30.826 Y50.803 Z1.077 R0.24
X31.16 Y50.863 Z1.062 R0.24
X31.202 Y50.976 Z1.058 R0.24
X30.988 Y51.238 Z1.043 R0.239
X30.868 Y51.219 Z1.038 R0.239
X30.745 Y50.904 Z1.024 R0.239
X30.82 Y50.809 Z1.019 R0.239
X31.154 Y50.856 Z1.005 R0.239
X31.2 Y50.968 Z1. R0.239
X30.996 Y51.236 Z0.985 R0.238
X30.876 Y51.221 Z0.981 R0.238
X30.743 Y50.912 Z0.966 R0.238
X30.814 Y50.815 Z0.962 R0.238
X31.148 Y50.85 Z0.947 R0.238
X31.198 Y50.96 Z0.942 R0.238
X31.004 Y51.234 Z0.928 R0.237
X30.885 Y51.223 Z0.923 R0.237
X30.741 Y50.921 Z0.909 R0.237
X30.808 Y50.822 Z0.904 R0.237
X31.142 Y50.844 Z0.889 R0.237
X31.195 Y50.951 Z0.885 R0.237
X31.012 Y51.231 Z0.87 R0.236
X30.893 Y51.225 Z0.865 R0.236
X30.739 Y50.929 Z0.851 R0.236
X30.802 Y50.828 Z0.846 R0.236
X31.136 Y50.839 Z0.832 R0.236
X31.192 Y50.943 Z0.827 R0.236
X31.021 Y51.228 Z0.812 R0.235
X30.901 Y51.227 Z0.808 R0.235
X30.738 Y50.938 Z0.793 R0.235
X30.797 Y50.835 Z0.788 R0.235
X31.129 Y50.833 Z0.774 R0.235
X31.189 Y50.935 Z0.769 R0.235
X31.028 Y51.225 Z0.755 R0.234
X30.91 Y51.228 Z0.75 R0.234
X30.736 Y50.946 Z0.735 R0.234
X30.792 Y50.842 Z0.731 R0.234
X31.122 Y50.828 Z0.716 R0.234
X31.186 Y50.928 Z0.712 R0.234
X31.036 Y51.222 Z0.697 R0.233
X30.918 Y51.229 Z0.692 R0.233
X30.736 Y50.954 Z0.678 R0.233
X30.787 Y50.849 Z0.673 R0.233
X31.115 Y50.823 Z0.659 R0.233
X31.182 Y50.92 Z0.654 R0.233
X31.044 Y51.218 Z0.639 R0.232
X30.927 Y51.229 Z0.635 R0.232
X30.735 Y50.963 Z0.62 R0.232
X30.783 Y50.856 Z0.615 R0.232
X31.108 Y50.819 Z0.601 R0.232
X31.178 Y50.913 Z0.596 R0.232
X31.051 Y51.214 Z0.582 R0.231
X30.935 Y51.229 Z0.577 R0.231
X30.735 Y50.971 Z0.562 R0.231
X30.778 Y50.863 Z0.558 R0.231
X31.101 Y50.815 Z0.543 R0.231
X31.174 Y50.905 Z0.538 R0.231
X31.058 Y51.21 Z0.524 R0.23
X30.943 Y51.229 Z0.519 R0.23
X30.735 Y50.98 Z0.505 R0.23
X30.774 Y50.87 Z0.5 R0.23
X31.094 Y50.811 Z0.485 R0.23
X31.17 Y50.898 Z0.481 R0.23
X31.065 Y51.205 Z0.466 R0.229
X30.952 Y51.229 Z0.462 R0.229
X30.735 Y50.988 Z0.447 R0.229
X30.771 Y50.878 Z0.442 R0.229
X31.086 Y50.807 Z0.428 R0.229
X31.165 Y50.892 Z0.423 R0.229
X31.072 Y51.201 Z0.409 R0.228
X30.96 Y51.228 Z0.404 R0.228
X30.736 Y50.996 Z0.389 R0.228
X30.767 Y50.885 Z0.385 R0.228
X31.079 Y50.804 Z0.37 R0.228
X31.16 Y50.885 Z0.365 R0.228
X31.079 Y51.196 Z0.351 R0.227
X30.968 Y51.227 Z0.346 R0.227
X30.737 Y51.004 Z0.332 R0.227
X30.764 Y50.893 Z0.327 R0.227
X31.071 Y50.8 Z0.312 R0.227
X31.155 Y50.878 Z0.308 R0.227
X31.085 Y51.191 Z0.293 R0.226
X30.976 Y51.226 Z0.288 R0.226
X30.739 Y51.012 Z0.274 R0.226
X30.761 Y50.9 Z0.269 R0.226
X31.063 Y50.798 Z0.255 R0.226
X31.15 Y50.872 Z0.25 R0.226
X31.092 Y51.185 Z0.235 R0.225
X30.984 Y51.224 Z0.231 R0.225
X30.74 Y51.02 Z0.216 R0.225
X30.759 Y50.908 Z0.212 R0.225
X31.056 Y50.795 Z0.197 R0.225
X31.144 Y50.866 Z0.192 R0.225
X31.098 Y51.18 Z0.178 R0.224
X30.992 Y51.222 Z0.173 R0.224
X30.742 Y51.028 Z0.159 R0.224
X30.757 Y50.916 Z0.154 R0.224
X31.048 Y50.793 Z0.139 R0.224
X31.138 Y50.86 Z0.135 R0.224
X31.103 Y51.174 Z0.12 R0.223
X31. Y51.22 Z0.115 R0.223
X30.744 Y51.036 Z0.101 R0.223
X30.755 Y50.924 Z0.096 R0.223
X31.04 Y50.791 Z0.082 R0.223
X31.132 Y50.855 Z0.077 R0.223
X31.109 Y51.168 Z0.062 R0.222
X31.008 Y51.218 Z0.058 R0.222
X30.747 Y51.044 Z0.043 R0.222
X30.753 Y50.932 Z0.038 R0.222
X31.032 Y50.789 Z0.024 R0.221
X31.126 Y50.85 Z0.019 R0.221
X31.114 Y51.162 Z0.005 R0.221
X31.015 Y51.215 Z0. R0.221
X30.749 Y51.051 Z-0.015 R0.221
X30.752 Y50.94 Z-0.019 R0.221
X31.024 Y50.788 Z-0.034 R0.22
X31.12 Y50.845 Z-0.038 R0.22
X31.119 Y51.156 Z-0.053 R0.22
X31.023 Y51.212 Z-0.058 R0.22
X30.752 Y51.059 Z-0.072 R0.22
X30.751 Y50.948 Z-0.077 R0.22
X31.016 Y50.787 Z-0.091 R0.219
X31.114 Y50.84 Z-0.096 R0.219
X31.124 Y51.15 Z-0.111 R0.219
X31.03 Y51.209 Z-0.115 R0.219
X30.755 Y51.066 Z-0.13 R0.219
X30.75 Y50.956 Z-0.135 R0.219
X31.008 Y50.786 Z-0.149 R0.218
X31.107 Y50.835 Z-0.154 R0.218
X31.128 Y51.143 Z-0.168 R0.218
X31.037 Y51.205 Z-0.173 R0.218
X30.759 Y51.073 Z-0.188 R0.218
X30.749 Y50.963 Z-0.192 R0.218
X31. Y50.786 Z-0.207 R0.217
X31.101 Y50.831 Z-0.212 R0.217
X31.133 Y51.136 Z-0.226 R0.217
X31.044 Y51.202 Z-0.231 R0.217
X30.763 Y51.08 Z-0.245 R0.217
X30.749 Y50.971 Z-0.25 R0.217
X30.992 Y50.785 Z-0.265 R0.216
X31.094 Y50.827 Z-0.269 R0.216
X31.137 Y51.13 Z-0.284 R0.216
X31.051 Y51.198 Z-0.288 R0.216
X30.767 Y51.087 Z-0.303 R0.216
X30.749 Y50.979 Z-0.308 R0.216
X30.985 Y50.786 Z-0.322 R0.215
X31.087 Y50.823 Z-0.327 R0.215
X31.14 Y51.123 Z-0.341 R0.215
X31.058 Y51.193 Z-0.346 R0.215
X30.771 Y51.094 Z-0.361 R0.215
X30.75 Y50.987 Z-0.365 R0.215
X30.977 Y50.786 Z-0.38 R0.214
X31.08 Y50.82 Z-0.385 R0.214
X31.144 Y51.116 Z-0.399 R0.214
X31.064 Y51.189 Z-0.404 R0.214
X30.775 Y51.1 Z-0.418 R0.214
X30.75 Y50.995 Z-0.423 R0.214
X30.969 Y50.787 Z-0.438 R0.213
X31.073 Y50.817 Z-0.442 R0.213
X31.147 Y51.109 Z-0.457 R0.213
X31.07 Y51.184 Z-0.462 R0.213
X30.78 Y51.106 Z-0.476 R0.213
X30.751 Y51.002 Z-0.481 R0.213
X30.961 Y50.788 Z-0.495 R0.212
X31.066 Y50.814 Z-0.5 R0.212
X31.15 Y51.102 Z-0.515 R0.212
X31.076 Y51.18 Z-0.519 R0.212
X30.785 Y51.112 Z-0.534 R0.212
X30.753 Y51.01 Z-0.538 R0.212
X30.954 Y50.789 Z-0.553 R0.211
X31.059 Y50.811 Z-0.558 R0.211
X31.153 Y51.094 Z-0.572 R0.211
X31.082 Y51.175 Z-0.577 R0.211
X30.789 Y51.118 Z-0.591 R0.211
X30.754 Y51.017 Z-0.596 R0.211
X30.946 Y50.79 Z-0.611 R0.21
X31.051 Y50.809 Z-0.615 R0.21
X31.155 Y51.087 Z-0.63 R0.21
X31.088 Y51.169 Z-0.635 R0.21
X30.795 Y51.124 Z-0.649 R0.21
X30.756 Y51.025 Z-0.654 R0.21
X30.939 Y50.792 Z-0.668 R0.209
X31.044 Y50.807 Z-0.673 R0.209
X31.157 Y51.08 Z-0.688 R0.209
X31.093 Y51.164 Z-0.692 R0.209
X30.8 Y51.129 Z-0.707 R0.209
X30.758 Y51.032 Z-0.712 R0.209
X30.932 Y50.794 Z-0.726 R0.208
X31.037 Y50.805 Z-0.731 R0.208
X31.159 Y51.072 Z-0.745 R0.208
X31.098 Y51.159 Z-0.75 R0.208
X30.806 Y51.134 Z-0.765 R0.208
X30.76 Y51.039 Z-0.769 R0.208
X30.924 Y50.796 Z-0.784 R0.207
X31.029 Y50.803 Z-0.788 R0.207
X31.16 Y51.065 Z-0.803 R0.207
X31.103 Y51.153 Z-0.808 R0.207
X30.811 Y51.139 Z-0.822 R0.207
X30.763 Y51.046 Z-0.827 R0.207
X30.917 Y50.799 Z-0.841 R0.206
X31.022 Y50.802 Z-0.846 R0.206
X31.162 Y51.058 Z-0.861 R0.206
X31.108 Y51.147 Z-0.865 R0.206
X30.817 Y51.144 Z-0.88 R0.206
X30.765 Y51.053 Z-0.885 R0.206
X30.91 Y50.802 Z-0.899 R0.205
X31.014 Y50.801 Z-0.904 R0.205
X31.163 Y51.05 Z-0.918 R0.205
X31.112 Y51.141 Z-0.923 R0.205
X30.823 Y51.148 Z-0.938 R0.205
X30.768 Y51.06 Z-0.942 R0.205
X30.904 Y50.805 Z-0.957 R0.204
X31.007 Y50.8 Z-0.962 R0.204
X31.163 Y51.043 Z-0.976 R0.204
X31.117 Y51.135 Z-0.981 R0.204
X30.829 Y51.153 Z-0.995 R0.204
X30.772 Y51.067 Z-1. R0.204
X30.897 Y50.808 Z-1.015 R0.203
X31. Y50.8 Z-1.019 R0.203
X31.164 Y51.036 Z-1.034 R0.203
X31.121 Y51.129 Z-1.038 R0.203
X30.835 Y51.156 Z-1.053 R0.203
X30.775 Y51.073 Z-1.058 R0.203
X30.891 Y50.811 Z-1.072 R0.202
X30.992 Y50.8 Z-1.077 R0.202
X31.164 Y51.028 Z-1.091 R0.202
X31.124 Y51.122 Z-1.096 R0.202
X30.842 Y51.16 Z-1.111 R0.202
X30.779 Y51.08 Z-1.115 R0.202
X30.884 Y50.815 Z-1.13 R0.201
X30.985 Y50.8 Z-1.135 R0.201
X31.164 Y51.021 Z-1.149 R0.201
X31.128 Y51.116 Z-1.154 R0.201
X30.848 Y51.164 Z-1.168 R0.201
X30.783 Y51.086 Z-1.173 R0.201
X30.878 Y50.819 Z-1.188 R0.2
X30.978 Y50.8 Z-1.192 R0.2
X31.163 Y51.014 Z-1.207 R0.2
X31.131 Y51.109 Z-1.212 R0.2
X30.855 Y51.167 Z-1.226 R0.2
X30.787 Y51.092 Z-1.231 R0.2
X30.872 Y50.823 Z-1.245 R0.199
X30.97 Y50.801 Z-1.25 R0.199
X31.163 Y51.006 Z-1.265 R0.199
X31.134 Y51.103 Z-1.269 R0.199
X30.861 Y51.17 Z-1.284 R0.199
X30.791 Y51.098 Z-1.288 R0.199
X30.866 Y50.827 Z-1.303 R0.198
X30.963 Y50.802 Z-1.308 R0.198
X31.162 Y50.999 Z-1.322 R0.198
X31.137 Y51.096 Z-1.327 R0.198
X30.868 Y51.173 Z-1.341 R0.198
X30.796 Y51.103 Z-1.346 R0.198
X30.861 Y50.832 Z-1.361 R0.197
X30.956 Y50.803 Z-1.365 R0.197
X31.161 Y50.992 Z-1.38 R0.197
X31.139 Y51.089 Z-1.385 R0.197
X30.875 Y51.175 Z-1.399 R0.197
X30.8 Y51.109 Z-1.404 R0.197
X30.855 Y50.837 Z-1.418 R0.196
X30.949 Y50.804 Z-1.423 R0.196
X31.159 Y50.985 Z-1.438 R0.196
X31.141 Y51.083 Z-1.442 R0.196
X30.881 Y51.177 Z-1.457 R0.196
X30.805 Y51.114 Z-1.462 R0.196
X30.85 Y50.841 Z-1.476 R0.195
X30.942 Y50.806 Z-1.481 R0.195
X31.158 Y50.978 Z-1.495 R0.195
X31.143 Y51.076 Z-1.5 R0.195
X30.888 Y51.179 Z-1.515 R0.195
X30.81 Y51.119 Z-1.519 R0.195
X30.845 Y50.846 Z-1.534 R0.194
X30.935 Y50.808 Z-1.538 R0.194
X31.156 Y50.971 Z-1.553 R0.194
X31.145 Y51.069 Z-1.558 R0.194
X30.895 Y51.181 Z-1.572 R0.194
X30.815 Y51.124 Z-1.577 R0.194
X30.84 Y50.852 Z-1.591 R0.193
X30.929 Y50.81 Z-1.596 R0.193
X31.154 Y50.965 Z-1.611 R0.193
X31.146 Y51.062 Z-1.615 R0.193
X30.902 Y51.182 Z-1.63 R0.193
X30.821 Y51.128 Z-1.635 R0.193
X30.836 Y50.857 Z-1.649 R0.192
X30.922 Y50.812 Z-1.654 R0.192
X31.151 Y50.958 Z-1.668 R0.192
X31.148 Y51.055 Z-1.673 R0.192
X30.909 Y51.183 Z-1.688 R0.192
X30.826 Y51.133 Z-1.692 R0.192
X30.831 Y50.862 Z-1.707 R0.191
X30.916 Y50.815 Z-1.712 R0.191
X31.149 Y50.952 Z-1.726 R0.191
X31.148 Y51.048 Z-1.731 R0.191
X30.916 Y51.184 Z-1.745 R0.191
X30.832 Y51.137 Z-1.75 R0.191
X30.827 Y50.868 Z-1.765 R0.19
X30.909 Y50.818 Z-1.769 R0.19
X31.146 Y50.945 Z-1.784 R0.19
X31.149 Y51.041 Z-1.788 R0.19
X30.923 Y51.185 Z-1.803 R0.19
X30.837 Y51.141 Z-1.808 R0.19
X30.823 Y50.874 Z-1.822 R0.189
X30.903 Y50.821 Z-1.827 R0.189
X31.143 Y50.939 Z-1.841 R0.189
X31.15 Y51.035 Z-1.846 R0.189
X30.929 Y51.185 Z-1.861 R0.189
X30.843 Y51.145 Z-1.865 R0.189
X30.819 Y50.879 Z-1.88 R0.188
X30.897 Y50.824 Z-1.885 R0.188
X31.139 Y50.933 Z-1.899 R0.188
X31.15 Y51.028 Z-1.904 R0.188
X30.936 Y51.185 Z-1.918 R0.188
X30.849 Y51.148 Z-1.923 R0.188
X30.816 Y50.885 Z-1.938 R0.187
X30.891 Y50.828 Z-1.942 R0.187
X31.136 Y50.927 Z-1.957 R0.187
X31.15 Y51.021 Z-1.962 R0.187
X30.943 Y51.185 Z-1.976 R0.187
X30.855 Y51.151 Z-1.981 R0.187
X30.813 Y50.891 Z-1.995 R0.186
X30.885 Y50.831 Z-2. R0.186
X31.132 Y50.922 Z-2.015 R0.186
X31.149 Y51.014 Z-2.019 R0.186
X30.95 Y51.185 Z-2.034 R0.186
X30.861 Y51.154 Z-2.038 R0.186
X30.81 Y50.897 Z-2.053 R0.185
X30.88 Y50.835 Z-2.058 R0.185
X31.129 Y50.916 Z-2.072 R0.185
X31.149 Y51.007 Z-2.077 R0.185
X30.957 Y51.184 Z-2.091 R0.185
X30.867 Y51.157 Z-2.096 R0.185
X30.807 Y50.903 Z-2.111 R0.184
X30.875 Y50.839 Z-2.115 R0.184
X31.125 Y50.911 Z-2.13 R0.184
X31.148 Y51.001 Z-2.135 R0.184
X30.963 Y51.183 Z-2.149 R0.184
X30.873 Y51.159 Z-2.154 R0.184
X30.805 Y50.91 Z-2.168 R0.183
X30.869 Y50.843 Z-2.173 R0.183
X31.12 Y50.905 Z-2.188 R0.183
X31.147 Y50.994 Z-2.192 R0.183
X30.97 Y51.182 Z-2.207 R0.183
X30.88 Y51.162 Z-2.212 R0.183
X30.802 Y50.916 Z-2.226 R0.182
X30.864 Y50.848 Z-2.231 R0.182
X31.116 Y50.9 Z-2.245 R0.182
X31.145 Y50.988 Z-2.25 R0.182
X30.976 Y51.181 Z-2.265 R0.182
X30.886 Y51.164 Z-2.269 R0.182
X30.8 Y50.922 Z-2.284 R0.181
X30.859 Y50.852 Z-2.288 R0.181
X31.112 Y50.896 Z-2.303 R0.181
X31.144 Y50.981 Z-2.308 R0.181
X30.983 Y51.179 Z-2.322 R0.181
X30.892 Y51.166 Z-2.327 R0.181
X30.799 Y50.929 Z-2.341 R0.18
X30.855 Y50.857 Z-2.346 R0.18
X31.107 Y50.891 Z-2.361 R0.18
X31.142 Y50.975 Z-2.365 R0.18
X30.989 Y51.178 Z-2.38 R0.18
X30.899 Y51.167 Z-2.385 R0.18
X30.797 Y50.935 Z-2.399 R0.179
X30.85 Y50.862 Z-2.404 R0.179
X31.102 Y50.886 Z-2.418 R0.179
X31.14 Y50.969 Z-2.423 R0.179
X30.995 Y51.176 Z-2.438 R0.179
X30.905 Y51.168 Z-2.442 R0.179
X30.796 Y50.941 Z-2.457 R0.178
X30.846 Y50.866 Z-2.462 R0.178
X31.097 Y50.882 Z-2.476 R0.178
X31.138 Y50.963 Z-2.481 R0.178
X31.001 Y51.173 Z-2.495 R0.178
X30.912 Y51.169 Z-2.5 R0.178
X30.795 Y50.948 Z-2.515 R0.177
X30.842 Y50.872 Z-2.519 R0.177
X31.092 Y50.878 Z-2.534 R0.177
X31.135 Y50.957 Z-2.538 R0.177
X31.007 Y51.171 Z-2.553 R0.177
X30.918 Y51.17 Z-2.558 R0.177
X30.794 Y50.954 Z-2.572 R0.176
X30.838 Y50.877 Z-2.577 R0.176
X31.087 Y50.874 Z-2.591 R0.176
X31.133 Y50.951 Z-2.596 R0.176
X31.013 Y51.168 Z-2.611 R0.176
X30.924 Y51.171 Z-2.615 R0.176
X30.793 Y50.96 Z-2.63 R0.175
X30.835 Y50.882 Z-2.635 R0.175
X31.082 Y50.871 Z-2.649 R0.175
X31.13 Y50.945 Z-2.654 R0.175
X31.019 Y51.166 Z-2.668 R0.175
X30.931 Y51.171 Z-2.673 R0.175
X30.793 Y50.967 Z-2.688 R0.174
X30.831 Y50.887 Z-2.692 R0.174
X31.076 Y50.867 Z-2.707 R0.174
X31.127 Y50.939 Z-2.712 R0.174
X31.024 Y51.162 Z-2.726 R0.174
X30.937 Y51.171 Z-2.731 R0.174
X30.793 Y50.973 Z-2.745 R0.173
X30.828 Y50.893 Z-2.75 R0.173
X31.071 Y50.864 Z-2.765 R0.173
X31.124 Y50.934 Z-2.769 R0.173
X31.03 Y51.159 Z-2.784 R0.172
X30.943 Y51.171 Z-2.788 R0.172
X30.793 Y50.979 Z-2.803 R0.172
X30.825 Y50.898 Z-2.808 R0.172
X31.065 Y50.861 Z-2.822 R0.172
X31.12 Y50.929 Z-2.827 R0.172
X31.035 Y51.156 Z-2.841 R0.171
X30.95 Y51.171 Z-2.846 R0.171
X30.793 Y50.986 Z-2.861 R0.171
X30.822 Y50.904 Z-2.865 R0.171
X31.06 Y50.859 Z-2.88 R0.171
X31.117 Y50.924 Z-2.885 R0.171
X31.04 Y51.152 Z-2.899 R0.17
X30.956 Y51.17 Z-2.904 R0.17
X30.794 Y50.992 Z-2.918 R0.17
X30.82 Y50.91 Z-2.923 R0.17
X31.054 Y50.856 Z-2.938 R0.17
X31.113 Y50.919 Z-2.942 R0.17
X31.045 Y51.149 Z-2.957 R0.169
X30.962 Y51.169 Z-2.962 R0.169
X30.795 Y50.998 Z-2.976 R0.169
X30.818 Y50.915 Z-2.981 R0.169
X31.048 Y50.854 Z-2.995 R0.169
X31.109 Y50.914 Z-3. R0.169
X31.05 Y51.145 Z-3.015 R0.168
X30.968 Y51.168 Z-3.019 R0.168
X30.796 Y51.004 Z-3.034 R0.168
X30.816 Y50.921 Z-3.038 R0.168
X31.042 Y50.852 Z-3.053 R0.168
X31.105 Y50.909 Z-3.058 R0.168
X31.055 Y51.141 Z-3.072 R0.167
X30.974 Y51.167 Z-3.077 R0.167
X30.797 Y51.01 Z-3.091 R0.167
X30.814 Y50.927 Z-3.096 R0.167
X31.037 Y50.85 Z-3.111 R0.167
X31.101 Y50.905 Z-3.115 R0.167
X31.059 Y51.136 Z-3.13 R0.166
X30.98 Y51.165 Z-3.135 R0.166
X30.799 Y51.016 Z-3.149 R0.166
X30.812 Y50.933 Z-3.154 R0.166
X31.031 Y50.848 Z-3.168 R0.166
X31.096 Y50.901 Z-3.173 R0.166
X31.063 Y51.132 Z-3.188 R0.165
X30.986 Y51.164 Z-3.192 R0.165
X30.8 Y51.022 Z-3.207 R0.165
X30.811 Y50.939 Z-3.212 R0.165
X31.025 Y50.847 Z-3.226 R0.165
X31.092 Y50.897 Z-3.231 R0.165
X31.067 Y51.128 Z-3.245 R0.164
X30.991 Y51.162 Z-3.25 R0.164
X30.802 Y51.027 Z-3.265 R0.164
X30.81 Y50.945 Z-3.269 R0.164
X31.019 Y50.846 Z-3.284 R0.164
X31.087 Y50.893 Z-3.288 R0.164
X31.071 Y51.123 Z-3.303 R0.163
X30.997 Y51.16 Z-3.308 R0.163
X30.804 Y51.033 Z-3.322 R0.163
X30.809 Y50.951 Z-3.327 R0.163
X31.013 Y50.845 Z-3.341 R0.163
X31.083 Y50.889 Z-3.346 R0.163
X31.075 Y51.119 Z-3.361 R0.162
X31.002 Y51.158 Z-3.365 R0.162
X30.807 Y51.039 Z-3.38 R0.162
X30.808 Y50.956 Z-3.385 R0.162
X31.007 Y50.844 Z-3.399 R0.162
X31.078 Y50.885 Z-3.404 R0.162
Y51.114 Z-3.418 R0.161
X31.008 Y51.155 Z-3.423 R0.161
X30.809 Y51.044 Z-3.438 R0.161
X30.807 Y50.962 Z-3.442 R0.161
X31.001 Y50.844 Z-3.457 R0.161
X31.073 Y50.882 Z-3.462 R0.161
X31.082 Y51.109 Z-3.476 R0.16
X31.013 Y51.152 Z-3.481 R0.16
X30.812 Y51.049 Z-3.495 R0.16
X30.807 Y50.968 Z-3.5 R0.16
X30.996 Y50.843 Z-3.515 R0.16
X31.068 Y50.879 Z-3.519 R0.16
X31.085 Y51.104 Z-3.534 R0.159
X31.018 Y51.15 Z-3.538 R0.159
X30.815 Y51.054 Z-3.553 R0.159
X30.807 Y50.974 Z-3.558 R0.159
X30.99 Y50.843 Z-3.572 R0.159
X31.063 Y50.876 Z-3.577 R0.159
X31.088 Y51.099 Z-3.591 R0.158
X31.023 Y51.147 Z-3.596 R0.158
X30.817 Y51.059 Z-3.611 R0.158
X30.807 Y50.98 Z-3.615 R0.158
X30.984 Y50.844 Z-3.63 R0.158
X31.058 Y50.874 Z-3.635 R0.158
X31.09 Y51.094 Z-3.649 R0.157
X31.028 Y51.144 Z-3.654 R0.157
X30.821 Y51.064 Z-3.668 R0.157
X30.808 Y50.986 Z-3.673 R0.157
X30.978 Y50.844 Z-3.688 R0.157
X31.053 Y50.871 Z-3.692 R0.157
X31.093 Y51.089 Z-3.707 R0.156
X31.033 Y51.14 Z-3.712 R0.156
X30.824 Y51.069 Z-3.726 R0.156
X30.808 Y50.991 Z-3.731 R0.156
X30.973 Y50.845 Z-3.745 R0.156
X31.048 Y50.869 Z-3.75 R0.156
X31.095 Y51.083 Z-3.765 R0.155
X31.037 Y51.137 Z-3.769 R0.155
X30.827 Y51.073 Z-3.784 R0.155
X30.809 Y50.997 Z-3.788 R0.155
X30.967 Y50.845 Z-3.803 R0.155
X31.042 Y50.867 Z-3.808 R0.155
X31.097 Y51.078 Z-3.822 R0.154
X31.042 Y51.133 Z-3.827 R0.154
X30.831 Y51.078 Z-3.841 R0.154
X30.81 Y51.002 Z-3.846 R0.154
X30.961 Y50.846 Z-3.861 R0.154
X31.037 Y50.865 Z-3.865 R0.154
X31.099 Y51.073 Z-3.88 R0.153
X31.046 Y51.129 Z-3.885 R0.153
X30.835 Y51.082 Z-3.899 R0.153
X30.811 Y51.008 Z-3.904 R0.153
X30.956 Y50.848 Z-3.918 R0.153
X31.032 Y50.863 Z-3.923 R0.153
X31.1 Y51.067 Z-3.938 R0.152
X31.05 Y51.126 Z-3.942 R0.152
X30.839 Y51.086 Z-3.957 R0.152
X30.813 Y51.013 Z-3.962 R0.152
X30.951 Y50.849 Z-3.976 R0.152
X31.026 Y50.862 Z-3.981 R0.152
X31.102 Y51.062 Z-3.995 R0.151
X31.054 Y51.122 Z-4. R0.151
X30.843 Y51.09 Z-4.015 R0.151
X30.814 Y51.019 Z-4.019 R0.151
X30.945 Y50.851 Z-4.034 R0.151
X31.021 Y50.861 Z-4.038 R0.151
X31.103 Y51.057 Z-4.053 R0.15
X31.057 Y51.117 Z-4.058 R0.15
X30.847 Y51.093 Z-4.072 R0.15
X30.816 Y51.024 Z-4.077 R0.15
X30.94 Y50.852 Z-4.091 R0.15
X31.015 Y50.86 Z-4.096 R0.15
X31.104 Y51.051 Z-4.111 R0.149
X31.061 Y51.113 Z-4.115 R0.149
X30.851 Y51.097 Z-4.13 R0.149
X30.818 Y51.029 Z-4.135 R0.149
X30.935 Y50.854 Z-4.149 R0.149
X31.01 Y50.859 Z-4.154 R0.149
X31.105 Y51.046 Z-4.168 R0.148
X31.064 Y51.109 Z-4.173 R0.148
X30.855 Y51.1 Z-4.188 R0.148
X30.82 Y51.034 Z-4.192 R0.148
X30.93 Y50.856 Z-4.207 R0.148
X31.005 Y50.858 Z-4.212 R0.148
X31.105 Y51.04 Z-4.226 R0.147
X31.067 Y51.105 Z-4.231 R0.147
X30.86 Y51.103 Z-4.245 R0.147
X30.822 Y51.039 Z-4.25 R0.147
X30.925 Y50.859 Z-4.265 R0.147
X30.999 Y50.858 Z-4.269 R0.147
X31.106 Y51.035 Z-4.284 R0.146
X31.07 Y51.1 Z-4.288 R0.146
X30.864 Y51.106 Z-4.303 R0.146
X30.825 Y51.044 Z-4.308 R0.146
X30.92 Y50.861 Z-4.322 R0.146
X30.994 Y50.858 Z-4.327 R0.146
X31.106 Y51.03 Z-4.341 R0.145
X31.073 Y51.096 Z-4.346 R0.145
X30.869 Y51.109 Z-4.361 R0.145
X30.827 Y51.048 Z-4.365 R0.145
G1 X30.819 Y51.006 Z-4.368
X30.824 Y50.964 Z-4.371
X30.841 Y50.924 Z-4.374
X30.868 Y50.891 Z-4.376
X30.904 Y50.868 Z-4.379
X30.946 Y50.857 Z-4.382
X30.989 Y50.858 Z-4.385
X31.029 Y50.871 Z-4.387
X31.064 Y50.896 Z-4.39
X31.09 Y50.93 Z-4.393
X31.105 Y50.97 Z-4.396
X31.108 Y51.013 Z-4.398
X31.098 Y51.054 Z-4.401
X31.076 Y51.091 Z-4.404
X31.044 Y51.12 Z-4.407
X31.006 Y51.138 Z-4.409
X30.963 Y51.144 Z-4.412
X30.921 Y51.137 Z-4.415
X30.883 Y51.119 Z-4.418
X30.852 Y51.09 Z-4.42
X30.83 Y51.053 Z-4.423
X30.821 Y51.011 Z-4.426
X30.824 Y50.969 Z-4.429
X30.839 Y50.929 Z-4.431
X30.865 Y50.896 Z-4.434
X30.9 Y50.871 Z-4.437
X30.941 Y50.858 Z-4.44
X30.983 Z-4.442
X31.024 Y50.87 Z-4.445
X31.06 Y50.893 Z-4.448
X31.087 Y50.926 Z-4.451
X31.103 Y50.965 Z-4.453
X31.107 Y51.007 Z-4.456
X31.098 Y51.049 Z-4.459
X31.078 Y51.086 Z-4.462
X31.048 Y51.116 Z-4.464
X31.01 Y51.135 Z-4.467
X30.968 Y51.143 Z-4.47
X30.926 Y51.138 Z-4.473
X30.888 Y51.121 Z-4.475
X30.856 Y51.093 Z-4.478
X30.833 Y51.057 Z-4.481
X30.822 Y51.016 Z-4.484
X30.824 Y50.974 Z-4.486
X30.837 Y50.934 Z-4.489
X30.862 Y50.9 Z-4.492
X30.896 Y50.875 Z-4.495
X30.936 Y50.86 Z-4.497
X30.978 Y50.858 Z-4.5
X31.019 Y50.869 Z-4.503
X31.055 Y50.89 Z-4.505
X31.083 Y50.922 Z-4.508
X31.101 Y50.96 Z-4.511
X31.106 Y51.002 Z-4.514
X31.099 Y51.044 Z-4.516
X31.08 Y51.081 Z-4.519
X31.051 Y51.112 Z-4.522
X31.015 Y51.133 Z-4.525
X30.974 Y51.142 Z-4.527
X30.932 Y51.138 Z-4.53
X30.893 Y51.123 Z-4.533
X30.86 Y51.096 Z-4.536
X30.836 Y51.061 Z-4.538
X30.824 Y51.021 Z-4.541
Y50.979 Z-4.544
X30.836 Y50.939 Z-4.547
X30.859 Y50.904 Z-4.549
X30.892 Y50.878 Z-4.552
X30.931 Y50.862 Z-4.555
X30.973 Y50.859 Z-4.558
X31.014 Y50.868 Z-4.56
X31.05 Y50.888 Z-4.563
X31.079 Y50.918 Z-4.566
X31.098 Y50.956 Z-4.569
X31.105 Y50.997 Z-4.571
X31.1 Y51.039 Z-4.574
X31.082 Y51.077 Z-4.577
X31.055 Y51.108 Z-4.58
X31.019 Y51.13 Z-4.582
X30.979 Y51.14 Z-4.585
X30.937 Y51.138 Z-4.588
X30.897 Y51.124 Z-4.591
X30.864 Y51.099 Z-4.593
X30.839 Y51.065 Z-4.596
X30.826 Y51.026 Z-4.599
X30.824 Y50.984 Z-4.602
X30.835 Y50.944 Z-4.604
X30.857 Y50.909 Z-4.607
X30.888 Y50.881 Z-4.61
X30.926 Y50.865 Z-4.613
X30.968 Y50.86 Z-4.615
X31.009 Y50.867 Z-4.618
X31.046 Y50.886 Z-4.621
X31.076 Y50.915 Z-4.624
X31.095 Y50.951 Z-4.626
X31.104 Y50.992 Z-4.629
X31.1 Y51.033 Z-4.632
X31.084 Y51.072 Z-4.635
X31.058 Y51.104 Z-4.637
X31.023 Y51.127 Z-4.64
X30.983 Y51.139 Z-4.643
X30.942 Y51.138 Z-4.646
X30.902 Y51.126 Z-4.648
X30.868 Y51.102 Z-4.651
X30.843 Y51.069 Z-4.654
X30.828 Y51.031 Z-4.657
X30.825 Y50.99 Z-4.659
X30.834 Y50.949 Z-4.662
X30.854 Y50.913 Z-4.665
X30.885 Y50.885 Z-4.668
X30.922 Y50.867 Z-4.67
X30.963 Y50.861 Z-4.673
X31.004 Y50.866 Z-4.676
X31.041 Y50.884 Z-4.679
X31.072 Y50.912 Z-4.681
X31.093 Y50.947 Z-4.684
X31.103 Y50.987 Z-4.687
X31.1 Y51.028 Z-4.69
X31.086 Y51.067 Z-4.692
X31.061 Y51.1 Z-4.695
X31.027 Y51.124 Z-4.698
X30.988 Y51.137 Z-4.701
X30.947 Y51.138 Z-4.703
X30.907 Y51.127 Z-4.706
X30.873 Y51.105 Z-4.709
X30.846 Y51.073 Z-4.712
X30.83 Y51.035 Z-4.714
X30.825 Y50.995 Z-4.717
X30.833 Y50.954 Z-4.72
X30.852 Y50.918 Z-4.723
X30.881 Y50.889 Z-4.725
X30.917 Y50.87 Z-4.728
X30.958 Y50.862 Z-4.731
X30.999 Y50.866 Z-4.734
X31.036 Y50.882 Z-4.736
X31.068 Y50.908 Z-4.739
X31.09 Y50.943 Z-4.742
X31.101 Y50.982 Z-4.745
X31.1 Y51.023 Z-4.747
X31.087 Y51.062 Z-4.75
X31.064 Y51.095 Z-4.753
X31.031 Y51.12 Z-4.755
X30.993 Y51.135 Z-4.758
X30.952 Y51.137 Z-4.761
X30.912 Y51.128 Z-4.764
X30.877 Y51.107 Z-4.766
X30.85 Y51.077 Z-4.769
X30.832 Y51.04 Z-4.772
X30.826 Y51. Z-4.775
X30.832 Y50.959 Z-4.777
X30.85 Y50.923 Z-4.78
X30.878 Y50.893 Z-4.783
X30.913 Y50.872 Z-4.786
X30.953 Y50.863 Z-4.788
X30.993 Y50.866 Z-4.791
X31.031 Y50.88 Z-4.794
X31.063 Y50.905 Z-4.797
X31.087 Y50.939 Z-4.799
X31.099 Y50.977 Z-4.802
X31.1 Y51.018 Z-4.805
X31.088 Y51.057 Z-4.808
X31.066 Y51.091 Z-4.81
X31.035 Y51.117 Z-4.813
X30.998 Y51.133 Z-4.816
X30.957 Y51.137 Z-4.819
X30.917 Y51.129 Z-4.821
X30.882 Y51.109 Z-4.824
X30.853 Y51.08 Z-4.827
X30.835 Y51.044 Z-4.83
X30.827 Y51.005 Z-4.832
X30.832 Y50.964 Z-4.835
X30.848 Y50.927 Z-4.838
X30.875 Y50.897 Z-4.841
X30.909 Y50.875 Z-4.843
X30.948 Y50.864 Z-4.846
X30.988 Y50.866 Z-4.849
X31.027 Y50.879 Z-4.852
X31.059 Y50.903 Z-4.854
X31.084 Y50.935 Z-4.857
X31.097 Y50.973 Z-4.86
X31.099 Y51.013 Z-4.863
X31.09 Y51.052 Z-4.865
X31.069 Y51.087 Z-4.868
X31.039 Y51.114 Z-4.871
X31.002 Y51.13 Z-4.874
X30.962 Y51.136 Z-4.876
X30.922 Y51.129 Z-4.879
X30.886 Y51.111 Z-4.882
X30.857 Y51.084 Z-4.885
X30.837 Y51.049 Z-4.887
X30.829 Y51.009 Z-4.89
X30.832 Y50.969 Z-4.893
X30.847 Y50.932 Z-4.896
X30.872 Y50.901 Z-4.898
X30.905 Y50.878 Z-4.901
X30.943 Y50.866 Z-4.904
X30.983 Z-4.907
X31.022 Y50.878 Z-4.909
X31.055 Y50.9 Z-4.912
X31.08 Y50.931 Z-4.915
X31.095 Y50.968 Z-4.918
X31.099 Y51.008 Z-4.92
X31.09 Y51.047 Z-4.923
X31.071 Y51.082 Z-4.926
X31.042 Y51.11 Z-4.929
X31.006 Y51.128 Z-4.931
X30.967 Y51.135 Z-4.934
X30.927 Y51.13 Z-4.937
X30.891 Y51.113 Z-4.94
X30.861 Y51.087 Z-4.942
X30.84 Y51.053 Z-4.945
X30.83 Y51.014 Z-4.948
X30.832 Y50.974 Z-4.951
X30.845 Y50.937 Z-4.953
X30.869 Y50.905 Z-4.956
X30.901 Y50.881 Z-4.959
X30.939 Y50.868 Z-4.962
X30.979 Y50.866 Z-4.964
X31.017 Y50.877 Z-4.967
X31.051 Y50.898 Z-4.97
X31.077 Y50.928 Z-4.973
X31.093 Y50.964 Z-4.975
X31.098 Y51.003 Z-4.978
X31.091 Y51.043 Z-4.981
X31.073 Y51.078 Z-4.984
X31.045 Y51.106 Z-4.986
X31.011 Y51.125 Z-4.989
X30.972 Y51.134 Z-4.992
X30.932 Y51.13 Z-4.995
X30.896 Y51.115 Z-4.997
X30.865 Y51.09 Z-5.
X30.843 Y51.057 Z-5.003
X30.832 Y51.019 Z-5.005
Y50.979 Z-5.008
X30.844 Y50.941 Z-5.011
X30.866 Y50.909 Z-5.014
X30.897 Y50.884 Z-5.016
X30.934 Y50.87 Z-5.019
X30.974 Y50.867 Z-5.022
X31.012 Y50.876 Z-5.025
X31.046 Y50.895 Z-5.027
X31.073 Y50.924 Z-5.03
X31.091 Y50.96 Z-5.033
X31.097 Y50.999 Z-5.036
X31.092 Y51.038 Z-5.038
X31.071 Y51.079 Z-5.042
X31.038 Y51.11 Z-5.045
X30.996 Y51.129 Z-5.048
X30.95 Y51.132 Z-5.051
X30.906 Y51.119 Z-5.054
X30.869 Y51.093 Z-5.058
X30.843 Y51.055 Z-5.061
X30.832 Y51.01 Z-5.064
X30.836 Y50.965 Z-5.067
X30.856 Y50.923 Z-5.071
X30.888 Y50.891 Z-5.074
X30.93 Y50.872 Z-5.077
X30.975 Y50.868 Z-5.08
X31.019 Y50.88 Z-5.083
X31.057 Y50.906 Z-5.087
X31.083 Y50.943 Z-5.09
X31.095 Y50.987 Z-5.093
X31.092 Y51.033 Z-5.096
X31.073 Y51.074 Z-5.099
X31.041 Y51.107 Z-5.103
X31. Y51.127 Z-5.106
X30.955 Y51.131 Z-5.109
X30.911 Y51.121 Z-5.112
X30.873 Y51.095 Z-5.115
X30.846 Y51.059 Z-5.119
X30.833 Y51.015 Z-5.122
X30.836 Y50.97 Z-5.125
X30.854 Y50.928 Z-5.128
X30.885 Y50.895 Z-5.131
X30.926 Y50.874 Z-5.135
X30.971 Y50.869 Z-5.138
X31.015 Y50.879 Z-5.141
X31.053 Y50.903 Z-5.144
X31.08 Y50.939 Z-5.147
X31.094 Y50.983 Z-5.151
X31.092 Y51.028 Z-5.154
X31.075 Y51.07 Z-5.157
X31.044 Y51.103 Z-5.16
X31.005 Y51.124 Z-5.163
X30.96 Y51.131 Z-5.167
X30.916 Y51.121 Z-5.17
X30.877 Y51.098 Z-5.173
X30.849 Y51.062 Z-5.176
X30.835 Y51.02 Z-5.179
X30.836 Y50.974 Z-5.183
X30.852 Y50.932 Z-5.186
X30.882 Y50.899 Z-5.189
X30.921 Y50.877 Z-5.192
X30.966 Y50.87 Z-5.196
X31.01 Y50.878 Z-5.199
X31.049 Y50.901 Z-5.202
X31.077 Y50.936 Z-5.205
X31.092 Y50.978 Z-5.208
Y51.023 Z-5.212
X31.076 Y51.065 Z-5.215
X31.047 Y51.099 Z-5.218
X31.009 Y51.122 Z-5.221
X30.964 Y51.13 Z-5.224
X30.92 Y51.122 Z-5.228
X30.881 Y51.1 Z-5.231
X30.852 Y51.066 Z-5.234
X30.837 Y51.024 Z-5.237
X30.836 Y50.979 Z-5.24
X30.851 Y50.937 Z-5.244
X30.879 Y50.902 Z-5.247
X30.917 Y50.879 Z-5.25
X30.961 Y50.871 Z-5.253
X31.005 Y50.877 Z-5.256
X31.044 Y50.899 Z-5.26
X31.074 Y50.932 Z-5.263
X31.09 Y50.974 Z-5.266
X31.092 Y51.018 Z-5.269
X31.078 Y51.061 Z-5.272
X31.05 Y51.096 Z-5.276
X31.013 Y51.119 Z-5.279
X30.969 Y51.129 Z-5.282
X30.925 Y51.123 Z-5.285
X30.886 Y51.102 Z-5.288
X30.856 Y51.069 Z-5.292
X30.839 Y51.028 Z-5.295
X30.836 Y50.984 Z-5.298
X30.849 Y50.942 Z-5.301
X30.876 Y50.906 Z-5.304
X30.913 Y50.882 Z-5.308
X30.957 Y50.872 Z-5.311
X31. Y50.877 Z-5.314
X31.04 Y50.897 Z-5.317
X31.071 Y50.929 Z-5.321
X31.088 Y50.969 Z-5.324
X31.091 Y51.014 Z-5.327
X31.079 Y51.056 Z-5.33
X31.053 Y51.092 Z-5.333
X31.016 Y51.117 Z-5.337
X30.974 Y51.127 Z-5.34
X30.93 Y51.123 Z-5.343
X30.89 Y51.104 Z-5.346
X30.859 Y51.073 Z-5.349
X30.841 Y51.033 Z-5.353
X30.837 Y50.989 Z-5.356
X30.848 Y50.946 Z-5.359
X30.874 Y50.91 Z-5.362
X30.91 Y50.885 Z-5.365
X30.952 Y50.873 Z-5.369
X30.996 Y50.877 Z-5.372
X31.036 Y50.895 Z-5.375
X31.067 Y50.926 Z-5.378
X31.086 Y50.965 Z-5.381
X31.091 Y51.009 Z-5.385
X31.08 Y51.051 Z-5.388
X31.056 Y51.088 Z-5.391
X31.02 Y51.114 Z-5.394
X30.978 Y51.126 Z-5.397
X30.934 Y51.123 Z-5.401
X30.894 Y51.106 Z-5.404
X30.862 Y51.076 Z-5.407
X30.843 Y51.037 Z-5.41
X30.838 Y50.993 Z-5.413
X30.847 Y50.951 Z-5.417
X30.871 Y50.914 Z-5.42
X30.906 Y50.888 Z-5.423
X30.948 Y50.875 Z-5.426
X30.991 Y50.877 Z-5.429
X31.031 Y50.893 Z-5.433
X31.064 Y50.923 Z-5.436
X31.084 Y50.961 Z-5.439
X31.09 Y51.004 Z-5.442
X31.081 Y51.047 Z-5.446
X31.058 Y51.084 Z-5.449
X31.024 Y51.111 Z-5.452
X30.982 Y51.124 Z-5.455
X30.939 Y51.123 Z-5.458
X30.899 Y51.107 Z-5.462
X30.866 Y51.079 Z-5.465
X30.845 Y51.041 Z-5.468
X30.838 Y50.998 Z-5.471
X30.847 Y50.955 Z-5.474
X30.869 Y50.918 Z-5.478
X30.902 Y50.891 Z-5.481
X30.943 Y50.876 Z-5.484
X30.986 Y50.877 Z-5.487
X31.027 Y50.892 Z-5.49
X31.06 Y50.92 Z-5.494
X31.081 Y50.957 Z-5.497
X31.089 Y51. Z-5.5
G3 X30.964 Y51.125 R0.125
X30.839 Y51. R0.125
X30.964 Y50.875 R0.125
X31.089 Y51. R0.125
G1 X31.118 Y51.069 F1000.
X31.122 Y51.106
X31.106 Y51.18
X31.057 Y51.237
X30.99 Y51.271
X30.916 Y51.282
X30.842 Y51.27
X30.774 Y51.237
X30.718 Y51.188
X30.675 Y51.126
X30.625 Y50.985
X30.65 Y50.837
X30.739 Y50.716
X30.871 Y50.645
X31.02 Y50.634
X31.162 Y50.685
X31.275 Y50.783
X31.355 Y50.91
X31.392 Y51.055
X31.377 Y51.205
X31.315 Y51.341
X31.213 Y51.451
X31.081 Y51.523
X30.934 Y51.553
X30.785 Y51.539
X30.645 Y51.484
X30.526 Y51.393
X30.429 Y51.278
X30.368 Y51.142
X30.339 Y50.994
X30.351 Y50.845
X30.396 Y50.702
X30.477 Y50.575
X30.583 Y50.47
X30.713 Y50.394
X30.856 Y50.349
X31.006 Y50.339
X31.154 Y50.364
X31.293 Y50.418
X31.418 Y50.502
X31.524 Y50.607
X31.609 Y50.732
X31.665 Y50.871
X31.695 Y51.018
X31.693 Y51.168
X31.663 Y51.315
X31.605 Y51.453
X31.52 Y51.576
X31.414 Y51.683
X31.289 Y51.766
X31.151 Y51.825
X31.005 Y51.858
X30.855 Y51.862
X30.707 Y51.841
X30.564 Y51.793
X30.433 Y51.722
X30.314 Y51.631
X30.212 Y51.52
X30.131 Y51.394
X30.069 Y51.257
X30.033 Y51.112
X30.021 Y50.962
X30.031 Y50.813
X30.067 Y50.667
X30.126 Y50.529
X30.204 Y50.401
X30.303 Y50.289
X30.419 Y50.193
X30.547 Y50.116
X30.687 Y50.06
X30.833 Y50.027
X30.983 Y50.016
X31.132 Y50.027
X31.278 Y50.062
X31.418 Y50.117
X31.549 Y50.19
X31.667 Y50.283
X31.771 Y50.39
X31.861 Y50.511
X31.931 Y50.643
X31.983 Y50.784
X32.016 Y50.93
X32.028 Y51.08
X32.018 Y51.229
X31.989 Y51.377
X31.94 Y51.518
X31.871 Y51.652
X31.786 Y51.775
X31.685 Y51.886
X31.569 Y51.981
X31.442 Y52.06
X31.306 Y52.123
X31.162 Y52.167
X31.014 Y52.191
X30.864 Y52.196
X30.715 Y52.183
X30.568 Y52.15
X30.427 Y52.099
X30.293 Y52.031
X30.169 Y51.948
X30.056 Y51.85
X29.955 Y51.738
X29.868 Y51.616
X29.797 Y51.484
X29.743 Y51.344
X29.705 Y51.199
X29.685 Y51.05
X29.682 Y50.9
X29.699 Y50.751
X29.732 Y50.605
X29.781 Y50.463
X29.848 Y50.329
X29.93 Y50.203
X30.026 Y50.088
X30.134 Y49.984
X30.254 Y49.894
X30.383 Y49.818
X30.521 Y49.758
X30.664 Y49.713
X30.811 Y49.686
X30.961 Y49.675
X31.111 Y49.681
X31.259 Y49.703
X31.404 Y49.742
X31.544 Y49.797
X31.677 Y49.866
X31.802 Y49.949
X31.917 Y50.045
X32.021 Y50.153
X32.114 Y50.271
X32.194 Y50.398
X32.26 Y50.532
X32.31 Y50.674
X32.347 Y50.819
X32.368 Y50.968
X32.372 Y51.118
X32.361 Y51.267
X32.335 Y51.415
X32.294 Y51.559
X32.238 Y51.698
X32.167 Y51.83
X32.083 Y51.955
X31.988 Y52.071
X31.88 Y52.175
X31.763 Y52.268
X31.636 Y52.349
X31.503 Y52.417
X31.363 Y52.471
X31.218 Y52.51
X31.07 Y52.534
X30.92 Y52.544
X30.77 Y52.54
X30.622 Y52.52
X30.476 Y52.486
X30.334 Y52.437
X30.196 Y52.377
X30.066 Y52.302
X29.944 Y52.216
X29.83 Y52.118
X29.726 Y52.01
X29.632 Y51.893
X29.55 Y51.767
X29.481 Y51.634
X29.424 Y51.495
X29.38 Y51.352
X29.35 Y51.205
X29.334 Y51.056
X29.332 Y50.906
X29.344 Y50.756
X29.368 Y50.608
X29.407 Y50.463
X29.46 Y50.323
X29.525 Y50.188
X29.602 Y50.059
X29.69 Y49.938
X29.79 Y49.825
X29.899 Y49.723
X30.017 Y49.63
X30.143 Y49.549
X30.276 Y49.479
X30.414 Y49.421
X30.558 Y49.377
X30.704 Y49.346
X30.853 Y49.327
X31.003 Y49.322
X31.153 Y49.33
X31.301 Y49.352
X31.447 Y49.387
X31.59 Y49.433
X31.728 Y49.492
X31.86 Y49.563
X31.986 Y49.645
X32.104 Y49.737
X32.214 Y49.839
X32.315 Y49.95
X32.406 Y50.069
X32.487 Y50.195
X32.556 Y50.328
X32.615 Y50.466
X32.662 Y50.609
X32.696 Y50.755
X32.718 Y50.903
X32.727 Y51.053
X32.724 Y51.203
X32.709 Y51.352
X32.681 Y51.499
X32.64 Y51.644
X32.588 Y51.784
X32.524 Y51.92
X32.45 Y52.051
X32.365 Y52.174
X32.269 Y52.29
X32.164 Y52.398
X32.051 Y52.496
X31.931 Y52.586
X31.803 Y52.665
X31.669 Y52.733
X31.529 Y52.79
X31.384 Y52.836
X31.238 Y52.87
X31.089 Y52.892
X30.94 Y52.901
X30.787 Y52.899
X30.632 Y52.884
X30.48 Y52.856
X30.335 Y52.818
X30.193 Y52.768
X30.053 Y52.705
X29.916 Y52.63
X29.783 Y52.543
X29.658 Y52.446
X29.547 Y52.345
X29.444 Y52.233
X29.347 Y52.111
X29.259 Y51.979
X29.181 Y51.839
X29.114 Y51.693
X29.062 Y51.547
X29.022 Y51.401
X28.993 Y51.247
X28.975 Y51.088
X28.971 Y50.927
X28.98 Y50.767
X29.001 Y50.609
X29.035 Y50.455
X29.08 Y50.305
X29.139 Y50.156
X29.209 Y50.013
X29.291 Y49.876
X29.384 Y49.745
X29.488 Y49.621
X29.603 Y49.504
X29.726 Y49.397
X29.852 Y49.304
X29.987 Y49.221
X30.13 Y49.148
X30.282 Y49.086
X30.439 Y49.035
X30.599 Y48.997
X30.762 Y48.973
X30.926 Y48.961
X31.092 Y48.963
X31.258 Y48.978
X31.421 Y49.006
X31.58 Y49.046
X31.737 Y49.1
X31.891 Y49.168
X32.042 Y49.248
X32.186 Y49.341
X32.321 Y49.445
X32.448 Y49.558
X32.565 Y49.682
X32.672 Y49.816
X32.77 Y49.96
X32.855 Y50.11
X32.928 Y50.265
X32.987 Y50.426
X33.034 Y50.591
X33.068 Y50.762
X33.088 Y50.934
X33.093 Y51.104
X33.086 Y51.275
X33.064 Y51.446
X33.028 Y51.617
X32.979 Y51.785
X32.916 Y51.946
X32.841 Y52.102
X32.754 Y52.253
X32.653 Y52.397
X32.541 Y52.533
X32.419 Y52.66
X32.287 Y52.775
X32.147 Y52.88
X31.997 Y52.974
X31.839 Y53.057
X31.675 Y53.126
X31.507 Y53.182
X31.334 Y53.224
X31.158 Y53.252
X30.978 Y53.266
X30.796
X30.616 Y53.251
X30.438 Y53.222
X30.262 Y53.179
X30.089 Y53.121
X29.919 Y53.048
X29.755 Y52.962
X29.6 Y52.864
X29.454 Y52.754
X29.316 Y52.632
X29.188 Y52.499
X29.07 Y52.354
X28.963 Y52.2
X28.869 Y52.038
X28.79 Y51.871
X28.724 Y51.698
X28.671 Y51.519
X28.633 Y51.335
X28.61 Y51.148
X28.602 Y50.959
X28.609 Y50.771
X28.631 Y50.584
X28.669 Y50.4
X28.72 Y50.219
X28.787 Y50.042
X28.837 Y49.934
X28.923 Y49.772
X29.023 Y49.614
X29.137 Y49.462
X29.263 Y49.319
X29.4 Y49.188
X29.546 Y49.069
X29.701 Y48.962
X29.867 Y48.866
X30.041 Y48.783
X30.221 Y48.715
X30.407 Y48.661
X30.597 Y48.621
X30.79 Y48.598
X30.985 Y48.589
X31.18 Y48.597
X31.374 Y48.62
X31.565 Y48.658
X31.754 Y48.713
X31.939 Y48.782
X32.119 Y48.867
X32.292 Y48.966
X32.457 Y49.079
X32.612 Y49.205
X32.757 Y49.343
X32.892 Y49.493
X33.014 Y49.654
X33.122 Y49.824
X33.217 Y50.002
X33.297 Y50.187
X33.362 Y50.379
X33.412 Y50.576
X33.445 Y50.775
X33.463 Y50.975
X33.464 Y51.177
X33.449 Y51.379
X33.417 Y51.58
X33.37 Y51.778
X33.307 Y51.971
X33.229 Y52.159
X33.135 Y52.341
X33.027 Y52.515
X32.905 Y52.68
X32.77 Y52.835
X32.623 Y52.978
X32.465 Y53.11
X32.296 Y53.229
X32.117 Y53.334
X31.931 Y53.424
X31.738 Y53.5
X31.538 Y53.559
X31.334 Y53.603
X31.126 Y53.631
X30.916 Y53.641
X30.706 Y53.635
X30.497 Y53.612
X30.289 Y53.572
X30.084 Y53.515
X29.884 Y53.441
X29.69 Y53.352
X29.504 Y53.247
X29.326 Y53.128
X29.159 Y52.995
X29.002 Y52.848
X28.857 Y52.688
X28.724 Y52.516
X28.607 Y52.335
X28.504 Y52.146
X28.417 Y51.948
X28.345 Y51.743
X28.29 Y51.533
X28.252 Y51.318
X28.232 Y51.101
X28.229 Y50.883
X28.243 Y50.665
X28.275 Y50.449
X28.324 Y50.237
X28.391 Y50.024
X28.474 Y49.82
X28.573 Y49.624
X28.688 Y49.436
X28.817 Y49.258
X28.96 Y49.092
X29.116 Y48.937
X29.284 Y48.795
X29.463 Y48.667
X29.653 Y48.553
X29.852 Y48.454
X30.059 Y48.372
X30.273 Y48.306
X30.491 Y48.257
X30.714 Y48.226
X30.939 Y48.213
X31.164 Y48.217
X31.388 Y48.24
X31.61 Y48.281
X31.829 Y48.34
X32.044 Y48.417
X32.253 Y48.511
X32.454 Y48.622
X32.645 Y48.748
X32.827 Y48.89
X32.996 Y49.047
X33.154 Y49.217
X33.297 Y49.4
X33.425 Y49.593
X33.537 Y49.796
X33.633 Y50.008
X33.711 Y50.227
X33.772 Y50.451
X33.814 Y50.679
X33.838 Y50.91
X33.843 Y51.143
X33.83 Y51.375
X33.797 Y51.607
X33.747 Y51.835
X33.678 Y52.058
X33.591 Y52.276
X33.487 Y52.486
X33.366 Y52.688
X33.229 Y52.879
X33.078 Y53.06
X32.912 Y53.227
X32.732 Y53.381
X32.541 Y53.521
X32.338 Y53.644
X32.126 Y53.752
X31.906 Y53.842
X31.679 Y53.914
X31.446 Y53.968
X31.208 Y54.003
X30.969 Y54.019
X30.728 Y54.016
X30.488 Y53.993
X30.25 Y53.951
X30.015 Y53.89
X29.785 Y53.81
X29.562 Y53.712
X29.347 Y53.596
X29.142 Y53.463
X28.948 Y53.314
X28.766 Y53.149
X28.598 Y52.969
X28.444 Y52.777
X28.307 Y52.573
X28.186 Y52.358
X28.082 Y52.134
X27.997 Y51.902
X27.93 Y51.663
X27.883 Y51.419
X27.856 Y51.172
X27.848 Y50.924
X27.86 Y50.676
X27.892 Y50.429
X27.945 Y50.184
X28.017 Y49.943
X28.107 Y49.71
X28.217 Y49.484
X28.344 Y49.268
X28.487 Y49.063
X28.647 Y48.871
X28.822 Y48.692
X29.01 Y48.527
X29.212 Y48.377
X29.426 Y48.244
X29.651 Y48.128
X29.884 Y48.03
X30.126 Y47.951
X30.373 Y47.892
X30.625 Y47.853
X30.88 Y47.833
X31.135 Y47.835
X31.39 Y47.857
X31.644 Y47.899
X31.893 Y47.962
X32.138 Y48.045
X32.376 Y48.147
X32.606 Y48.269
X32.825 Y48.409
X33.033 Y48.566
X33.228 Y48.74
X33.409 Y48.93
X33.574 Y49.133
X33.723 Y49.35
X33.854 Y49.578
X33.966 Y49.815
X34.058 Y50.061
X34.131 Y50.314
X34.183 Y50.572
X34.215 Y50.833
X34.225 Y51.096
X34.214 Y51.359
X34.182 Y51.621
X34.129 Y51.88
X34.055 Y52.134
X33.961 Y52.382
X33.848 Y52.622
X33.715 Y52.852
X33.564 Y53.071
X33.396 Y53.277
X33.211 Y53.469
X33.011 Y53.647
X32.798 Y53.808
X32.572 Y53.951
X32.335 Y54.076
X32.088 Y54.182
X31.832 Y54.268
X31.571 Y54.333
X31.304 Y54.377
X31.034 Y54.399
X30.763 Y54.4
X30.491 Y54.379
X30.222 Y54.336
X29.956 Y54.272
X29.696 Y54.186
X29.444 Y54.08
X29.2 Y53.953
X29.062 Y53.867
X28.843 Y53.718
X28.634 Y53.549
X28.437 Y53.362
X28.254 Y53.158
X28.087 Y52.94
X27.938 Y52.707
X27.808 Y52.463
X27.697 Y52.208
X27.607 Y51.945
X27.538 Y51.675
X27.491 Y51.4
X27.466 Y51.122
X27.464 Y50.842
X27.484 Y50.563
X27.526 Y50.286
X27.591 Y50.012
X27.678 Y49.744
X27.786 Y49.484
X27.914 Y49.234
X28.062 Y48.994
X28.229 Y48.768
X28.413 Y48.555
X28.614 Y48.358
X28.831 Y48.177
X29.061 Y48.014
X29.305 Y47.87
X29.56 Y47.745
X29.825 Y47.642
X30.098 Y47.559
X30.377 Y47.498
X30.66 Y47.46
X30.946 Y47.445
X31.233 Y47.453
X31.518 Y47.484
X31.801 Y47.538
X32.08 Y47.615
X32.352 Y47.714
X32.616 Y47.835
X32.87 Y47.976
X33.112 Y48.139
X33.341 Y48.32
X33.555 Y48.52
X33.753 Y48.736
X33.932 Y48.968
X34.093 Y49.214
X34.233 Y49.472
X34.353 Y49.74
X34.45 Y50.018
X34.525 Y50.302
X34.577 Y50.591
X34.606 Y50.884
X34.611 Y51.178
X34.592 Y51.473
X34.55 Y51.765
X34.484 Y52.053
X34.395 Y52.335
X34.284 Y52.609
X34.151 Y52.874
X33.997 Y53.128
X33.823 Y53.368
X33.63 Y53.595
X33.419 Y53.805
X33.192 Y53.998
X32.949 Y54.172
X32.693 Y54.327
X32.425 Y54.46
X32.147 Y54.572
X31.86 Y54.662
X31.566 Y54.728
X31.268 Y54.77
X30.966 Y54.789
X30.664 Y54.783
X30.362 Y54.753
X30.063 Y54.698
X29.769 Y54.62
X29.481 Y54.518
X29.218 Y54.4
X28.935 Y54.245
X28.674 Y54.074
X28.431 Y53.884
X28.206 Y53.677
X27.997 Y53.453
X27.807 Y53.212
X27.637 Y52.956
X27.488 Y52.687
X27.36 Y52.406
X27.255 Y52.115
X27.174 Y51.817
X27.116 Y51.512
X27.084 Y51.204
X27.076 Y50.893
X27.093 Y50.583
X27.135 Y50.274
X27.202 Y49.969
X27.294 Y49.67
X27.408 Y49.38
X27.546 Y49.1
X27.706 Y48.831
X27.887 Y48.577
X28.088 Y48.337
X28.308 Y48.115
X28.545 Y47.91
X28.798 Y47.725
X29.065 Y47.56
X29.346 Y47.417
X29.638 Y47.297
X29.939 Y47.201
X30.247 Y47.129
X30.56 Y47.081
X30.877 Y47.06
X31.195 Y47.063
X31.512 Y47.092
X31.826 Y47.147
X32.136 Y47.226
X32.439 Y47.331
X32.733 Y47.46
X33.017 Y47.612
X33.288 Y47.787
X33.544 Y47.984
X33.784 Y48.201
X34.007 Y48.436
X34.209 Y48.689
X34.392 Y48.958
X34.552 Y49.241
X34.689 Y49.535
X34.801 Y49.84
X34.889 Y50.153
X34.952 Y50.472
X34.989 Y50.796
X35. Y51.121
X34.984 Y51.447
X34.943 Y51.77
X34.875 Y52.09
X34.783 Y52.403
X34.665 Y52.708
X34.523 Y53.003
X34.357 Y53.286
X34.169 Y53.556
X33.96 Y53.809
X33.731 Y54.045
X33.483 Y54.262
X33.219 Y54.459
X32.939 Y54.634
X32.646 Y54.787
X32.341 Y54.915
X32.026 Y55.019
X31.703 Y55.098
X31.374 Y55.15
X31.042 Y55.176
X30.708 Y55.175
X30.375 Y55.147
X30.044 Y55.092
X29.719 Y55.011
X29.407 Y54.907
X29.095 Y54.773
X28.793 Y54.614
X28.505 Y54.431
X28.234 Y54.227
X27.981 Y54.003
X27.747 Y53.758
X27.533 Y53.496
X27.341 Y53.217
X27.171 Y52.924
X27.095 Y52.764
X26.967 Y52.466
X26.859 Y52.15
X26.777 Y51.822
X26.72 Y51.487
X26.691 Y51.147
X26.689 Y50.805
X26.715 Y50.464
X26.768 Y50.125
X26.848 Y49.791
X26.954 Y49.465
X27.087 Y49.148
X27.244 Y48.842
X27.426 Y48.551
X27.63 Y48.274
X27.856 Y48.015
X28.102 Y47.775
X28.368 Y47.555
X28.65 Y47.356
X28.948 Y47.181
X29.259 Y47.03
X29.582 Y46.904
X29.915 Y46.804
X30.255 Y46.731
X30.601 Y46.686
X30.949 Y46.669
X31.298 Y46.679
X31.646 Y46.718
X31.99 Y46.784
X32.329 Y46.879
X32.659 Y47.
X32.979 Y47.147
X33.287 Y47.321
X33.581 Y47.518
X33.858 Y47.739
X34.116 Y47.981
X34.354 Y48.243
X34.57 Y48.524
X34.764 Y48.82
X34.933 Y49.131
X35.076 Y49.455
X35.194 Y49.789
X35.284 Y50.132
X35.347 Y50.48
X35.382 Y50.832
X35.388 Y51.186
X35.367 Y51.54
X35.317 Y51.89
X35.24 Y52.236
X35.135 Y52.574
X35.005 Y52.903
X34.848 Y53.221
X34.667 Y53.525
X34.462 Y53.814
X34.235 Y54.086
X33.987 Y54.339
X33.721 Y54.572
X33.436 Y54.783
X33.136 Y54.971
X32.823 Y55.135
X32.497 Y55.273
X32.161 Y55.386
X31.818 Y55.473
X31.469 Y55.532
X31.116 Y55.564
X30.762 Y55.568
X30.409 Y55.545
X30.058 Y55.495
X29.713 Y55.417
X29.374 Y55.313
X29.045 Y55.182
X28.727 Y55.027
X28.422 Y54.847
X28.132 Y54.645
X27.858 Y54.42
X27.601 Y54.176
X27.365 Y53.913
X27.149 Y53.632
X26.955 Y53.335
X26.786 Y53.025
X26.639 Y52.703
X26.517 Y52.37
X26.421 Y52.029
X26.352 Y51.682
X26.31 Y51.33
X26.295 Y50.977
X26.307 Y50.623
X26.346 Y50.271
X26.411 Y49.923
X26.503 Y49.581
X26.62 Y49.247
X26.762 Y48.922
X26.928 Y48.61
X27.118 Y48.311
X27.329 Y48.026
X27.561 Y47.759
X27.813 Y47.51
X28.083 Y47.281
X28.369 Y47.072
X28.67 Y46.886
X28.984 Y46.723
X29.31 Y46.585
X29.646 Y46.472
X29.989 Y46.385
X30.338 Y46.323
X30.69 Y46.288
X31.044 Y46.279
X31.398 Y46.296
X31.749 Y46.34
X32.096 Y46.409
X32.437 Y46.504
X32.771 Y46.623
X33.094 Y46.767
X33.406 Y46.934
X33.705 Y47.124
X33.988 Y47.337
X34.255 Y47.57
X34.504 Y47.822
X34.734 Y48.091
X34.943 Y48.377
X35.131 Y48.677
X35.297 Y48.989
X35.44 Y49.313
X35.559 Y49.647
X35.653 Y49.988
X35.722 Y50.336
X35.765 Y50.687
X35.782 Y51.041
X35.772 Y51.395
X35.736 Y51.747
X35.675 Y52.096
X35.588 Y52.439
X35.477 Y52.775
X35.342 Y53.103
X35.184 Y53.419
X35.003 Y53.724
X34.801 Y54.014
X34.578 Y54.289
X34.336 Y54.548
X34.076 Y54.788
X33.798 Y55.007
X33.505 Y55.206
X33.198 Y55.383
X32.88 Y55.538
X32.551 Y55.669
X32.214 Y55.777
X31.87 Y55.86
X31.52 Y55.919
X31.168 Y55.952
X30.814 Y55.961
X30.46 Y55.944
X30.109 Y55.902
X29.761 Y55.834
X29.42 Y55.741
X29.086 Y55.623
X28.761 Y55.482
X28.447 Y55.318
X28.145 Y55.133
X27.858 Y54.926
X27.585 Y54.7
X27.329 Y54.456
X27.09 Y54.194
X26.871 Y53.916
X26.672 Y53.624
X26.494 Y53.317
X26.338 Y52.999
X26.206 Y52.671
X26.096 Y52.334
X26.011 Y51.991
X25.951 Y51.642
X25.916 Y51.289
X25.905 Y50.935
X25.919 Y50.582
X25.957 Y50.23
X26.02 Y49.881
X26.107 Y49.538
X26.217 Y49.201
X26.351 Y48.874
X26.508 Y48.556
X26.687 Y48.251
X26.887 Y47.959
X27.107 Y47.681
X27.346 Y47.42
X27.602 Y47.175
X27.874 Y46.949
X28.161 Y46.742
X28.462 Y46.555
X28.775 Y46.389
X29.099 Y46.247
X29.432 Y46.127
X29.773 Y46.031
X30.12 Y45.959
X30.471 Y45.912
X30.824 Y45.89
X31.178 Y45.891
X31.531 Y45.916
X31.882 Y45.966
X32.228 Y46.039
X32.569 Y46.136
X32.902 Y46.255
X33.227 Y46.397
X33.541 Y46.56
X33.844 Y46.744
X34.132 Y46.949
X34.405 Y47.175
X34.662 Y47.418
X34.901 Y47.679
X35.123 Y47.955
X35.326 Y48.246
X35.508 Y48.549
X35.67 Y48.864
X35.811 Y49.189
X35.929 Y49.523
X36.025 Y49.863
X36.098 Y50.21
X36.148 Y50.56
X36.173 Y50.914
X36.172 Y51.268
X36.147 Y51.621
X36.098 Y51.972
X36.026 Y52.318
X35.93 Y52.659
X35.813 Y52.993
X35.673 Y53.318
X35.512 Y53.634
X35.33 Y53.938
X35.129 Y54.229
X34.909 Y54.506
X34.67 Y54.768
X34.415 Y55.013
X34.143 Y55.24
X33.856 Y55.447
X33.555 Y55.634
X33.243 Y55.801
X32.92 Y55.946
X32.588 Y56.07
X32.249 Y56.172
X31.904 Y56.252
X31.555 Y56.309
X31.202 Y56.342
X30.848 Y56.353
X30.494 Y56.34
X30.142 Y56.304
X29.793 Y56.244
X29.449 Y56.16
X29.112 Y56.052
X28.783 Y55.922
X28.462 Y55.771
X28.153 Y55.6
X27.855 Y55.408
X27.57 Y55.198
X27.299 Y54.97
X27.044 Y54.724
X26.805 Y54.463
X26.584 Y54.187
X26.381 Y53.897
X26.197 Y53.594
X26.034 Y53.28
X25.893 Y52.955
X25.773 Y52.621
X25.676 Y52.281
X25.602 Y51.935
X25.55 Y51.585
X25.521 Y51.232
X25.514 Y50.878
X25.531 Y50.524
X25.57 Y50.172
X25.632 Y49.823
X25.716 Y49.479
X25.821 Y49.142
X25.949 Y48.811
X26.098 Y48.49
X26.269 Y48.18
X26.46 Y47.882
X26.67 Y47.597
X26.898 Y47.325
X27.142 Y47.069
X27.402 Y46.829
X27.677 Y46.606
X27.966 Y46.401
X28.267 Y46.215
X28.58 Y46.049
X28.903 Y45.903
X29.234 Y45.779
X29.573 Y45.676
X29.918 Y45.596
X30.267 Y45.54
X30.62 Y45.506
X30.974 Y45.495
X31.328 Y45.506
X31.68 Y45.54
X32.03 Y45.595
X32.375 Y45.673
X32.715 Y45.772
X33.048 Y45.892
X33.373 Y46.032
X33.689 Y46.193
X33.994 Y46.373
X34.286 Y46.573
X34.564 Y46.792
X34.827 Y47.029
X35.075 Y47.282
X35.305 Y47.551
X35.519 Y47.833
X35.715 Y48.128
X35.892 Y48.435
X36.05 Y48.752
X36.188 Y49.078
X36.305 Y49.412
X36.401 Y49.753
X36.476 Y50.099
X36.53 Y50.449
X36.561 Y50.801
X36.569 Y51.155
X36.552 Y51.509
X36.513 Y51.861
X36.452 Y52.21
X36.37 Y52.554
X36.266 Y52.893
X36.142 Y53.224
X35.997 Y53.547
X35.833 Y53.861
X35.65 Y54.164
X35.449 Y54.455
X35.23 Y54.734
X34.994 Y54.998
X34.742 Y55.247
X34.475 Y55.479
X34.193 Y55.693
X33.897 Y55.888
X33.59 Y56.064
X33.273 Y56.221
X32.946 Y56.358
X32.612 Y56.475
X32.271 Y56.571
X31.925 Y56.647
X31.575 Y56.701
X31.223 Y56.733
X30.869 Y56.745
X30.515 Y56.734
X30.162 Y56.703
X29.812 Y56.649
X29.467 Y56.572
X29.127 Y56.473
X28.794 Y56.353
X28.469 Y56.212
X28.153 Y56.052
X27.848 Y55.873
X27.554 Y55.675
X27.272 Y55.461
X27.004 Y55.23
X26.75 Y54.983
X26.511 Y54.722
X26.288 Y54.446
X26.083 Y54.158
X25.895 Y53.858
X25.726 Y53.547
X25.578 Y53.225
X25.45 Y52.895
X25.343 Y52.557
X25.257 Y52.214
X25.192 Y51.866
X25.148 Y51.514
X25.125 Y51.161
X25.124 Y50.807
X25.144 Y50.454
X25.184 Y50.102
X25.246 Y49.753
X25.328 Y49.409
X25.431 Y49.07
X25.554 Y48.738
X25.697 Y48.414
X25.86 Y48.1
X26.044 Y47.797
X26.245 Y47.506
X26.464 Y47.227
X26.698 Y46.962
X26.948 Y46.711
X27.213 Y46.476
X27.491 Y46.257
X27.781 Y46.054
X28.083 Y45.869
X28.396 Y45.703
X28.718 Y45.555
X29.048 Y45.427
X29.385 Y45.32
X29.728 Y45.233
X30.077 Y45.168
X30.428 Y45.126
X30.781 Y45.105
X31.136 Y45.104
X31.489 Y45.125
X31.841 Y45.166
X32.189 Y45.227
X32.534 Y45.309
X32.873 Y45.411
X33.206 Y45.532
X33.531 Y45.673
X33.847 Y45.832
X34.153 Y46.01
X34.448 Y46.205
X34.731 Y46.419
X34.999 Y46.65
X35.253 Y46.897
X35.491 Y47.159
X35.714 Y47.434
X35.92 Y47.722
X36.109 Y48.021
X36.281 Y48.331
X36.434 Y48.65
X36.569 Y48.978
X36.685 Y49.312
X36.781 Y49.653
X36.857 Y49.999
X36.913 Y50.348
X36.949 Y50.701
X36.963 Y51.054
X36.954 Y51.408
X36.924 Y51.761
X36.872 Y52.111
X36.8 Y52.458
X36.708 Y52.8
X36.597 Y53.136
X36.466 Y53.465
X36.317 Y53.786
X36.149 Y54.098
X35.964 Y54.4
X35.762 Y54.691
X35.544 Y54.97
X35.31 Y55.235
X35.061 Y55.487
X34.797 Y55.723
X34.519 Y55.943
X34.229 Y56.145
X33.926 Y56.329
X33.613 Y56.495
X33.291 Y56.642
X32.962 Y56.771
X32.625 Y56.881
X32.283 Y56.972
X31.936 Y57.043
X31.586 Y57.094
X31.233 Y57.126
X30.879 Y57.137
X30.525 Y57.128
X30.172 Y57.099
X29.821 Y57.05
X29.474 Y56.98
X29.132 Y56.888
X28.797 Y56.776
X28.468 Y56.644
X28.148 Y56.493
X27.836 Y56.324
X27.535 Y56.138
X27.245 Y55.936
X26.966 Y55.717
X26.7 Y55.484
X26.448 Y55.235
X26.21 Y54.973
X25.987 Y54.698
X25.78 Y54.411
X25.589 Y54.113
X25.416 Y53.804
X25.261 Y53.485
X25.126 Y53.158
X25.011 Y52.823
X24.916 Y52.482
X24.84 Y52.136
X24.784 Y51.787
X24.747 Y51.434
X24.731 Y51.081
X24.734 Y50.727
X24.757 Y50.373
X24.8 Y50.022
X24.862 Y49.673
X24.943 Y49.329
X25.044 Y48.989
X25.163 Y48.656
X25.301 Y48.33
X25.459 Y48.013
X25.635 Y47.706
X25.829 Y47.41
X26.04 Y47.125
X26.266 Y46.853
X26.508 Y46.594
X26.763 Y46.348
X27.031 Y46.117
X27.312 Y45.901
X27.604 Y45.701
X27.907 Y45.518
X28.22 Y45.352
X28.541 Y45.204
X28.87 Y45.073
X29.207 Y44.962
X29.549 Y44.87
X29.895 Y44.798
X30.246 Y44.748
X30.599 Y44.718
X30.952 Y44.708
X31.306 Y44.718
X31.659 Y44.746
X32.01 Y44.795
X32.358 Y44.862
X32.701 Y44.948
X33.039 Y45.053
X33.371 Y45.176
X33.696 Y45.317
X34.013 Y45.475
X34.32 Y45.651
X34.617 Y45.844
X34.903 Y46.053
X35.176 Y46.278
X35.435 Y46.52
X35.679 Y46.776
X35.909 Y47.045
X36.124 Y47.327
X36.323 Y47.62
X36.506 Y47.923
X36.672 Y48.235
X36.822 Y48.557
X36.953 Y48.885
X37.067 Y49.221
X37.163 Y49.561
X37.239 Y49.907
X37.297 Y50.256
X37.336 Y50.608
X37.355 Y50.962
X37.353 Y51.316
X37.33 Y51.669
X37.287 Y52.021
X37.224 Y52.369
X37.142 Y52.714
X37.041 Y53.053
X36.922 Y53.387
X36.786 Y53.713
X36.632 Y54.032
X36.461 Y54.343
X36.274 Y54.643
X36.071 Y54.933
X35.853 Y55.212
X35.62 Y55.479
X35.373 Y55.732
X35.112 Y55.972
X34.838 Y56.196
X34.551 Y56.404
X34.253 Y56.594
X33.944 Y56.768
X33.627 Y56.924
X33.301 Y57.063
X32.969 Y57.185
X32.63 Y57.288
X32.286 Y57.374
X31.939 Y57.441
X31.588 Y57.489
X31.235 Y57.519
X30.881 Y57.53
X30.527 Y57.522
X30.174 Y57.495
X29.823 Y57.449
X29.475 Y57.384
X29.131 Y57.299
X28.793 Y57.193
X28.462 Y57.069
X28.138 Y56.926
X27.822 Y56.767
X27.514 Y56.591
X27.217 Y56.399
X26.93 Y56.191
X26.655 Y55.969
X26.391 Y55.732
X26.14 Y55.482
X25.903 Y55.219
X25.68 Y54.944
X25.472 Y54.658
X25.279 Y54.361
X25.103 Y54.054
X24.943 Y53.738
X24.802 Y53.413
X24.68 Y53.081
X24.576 Y52.742
X24.491 Y52.398
X24.425 Y52.051
X24.377 Y51.7
X24.348 Y51.347
X24.337 Y50.993
X24.345 Y50.639
X24.371 Y50.286
X24.416 Y49.935
X24.479 Y49.586
X24.56 Y49.242
X24.659 Y48.902
X24.775 Y48.567
X24.91 Y48.24
X25.062 Y47.92
X25.232 Y47.61
X25.42 Y47.309
X25.624 Y47.02
X25.843 Y46.742
X26.077 Y46.476
X26.323 Y46.222
X26.583 Y45.981
X26.855 Y45.754
X27.139 Y45.542
X27.433 Y45.345
X27.737 Y45.163
X28.05 Y44.998
X28.371 Y44.849
X28.7 Y44.717
X29.035 Y44.603
X29.375 Y44.507
X29.721 Y44.43
X30.07 Y44.372
X30.422 Y44.335
X30.776 Y44.316
X31.13
X31.484 Y44.335
X31.836 Y44.371
X32.186 Y44.426
X32.532 Y44.499
X32.875 Y44.589
X33.212 Y44.697
X33.543 Y44.822
X33.868 Y44.963
X34.185 Y45.122
X34.493 Y45.296
X34.791 Y45.486
X35.08 Y45.692
X35.356 Y45.913
X35.62 Y46.149
X35.87 Y46.4
X36.106 Y46.664
X36.327 Y46.94
X36.535 Y47.227
X36.728 Y47.524
X36.905 Y47.831
X37.066 Y48.146
X37.211 Y48.469
X37.34 Y48.799
X37.452 Y49.135
X37.546 Y49.476
X37.623 Y49.821
X37.683 Y50.17
X37.724 Y50.522
X37.746 Y50.876
X37.75 Y51.23
X37.734 Y51.583
X37.697 Y51.936
X37.642 Y52.285
X37.569 Y52.632
X37.478 Y52.974
X37.37 Y53.311
X37.244 Y53.642
X37.102 Y53.967
X36.944 Y54.283
X36.771 Y54.592
X36.581 Y54.891
X36.377 Y55.181
X36.159 Y55.459
X35.927 Y55.726
X35.681 Y55.981
X35.422 Y56.223
X35.151 Y56.451
X34.868 Y56.664
X34.574 Y56.861
X34.269 Y57.041
X33.955 Y57.205
X33.634 Y57.353
X33.305 Y57.484
X32.97 Y57.598
X32.629 Y57.696
X32.284 Y57.776
X31.936 Y57.839
X31.585 Y57.885
X31.232 Y57.913
X30.878 Y57.923
X30.524 Y57.915
X30.171 Y57.89
X29.819 Y57.847
X29.471 Y57.785
X29.126 Y57.706
X28.786 Y57.607
X28.452 Y57.489
X28.124 Y57.354
X27.804 Y57.203
X27.493 Y57.035
X27.189 Y56.852
X26.896 Y56.654
X26.612 Y56.442
X26.34 Y56.216
X26.078 Y55.977
X25.829 Y55.725
X25.593 Y55.462
X25.37 Y55.186
X25.162 Y54.901
X24.967 Y54.605
X24.788 Y54.299
X24.625 Y53.985
X24.478 Y53.663
X24.349 Y53.333
X24.239 Y52.997
X24.146 Y52.655
X24.071 Y52.309
X24.013 Y51.96
X23.972 Y51.608
X23.949 Y51.254
X23.944 Y50.9
X23.956 Y50.547
X23.985 Y50.194
X24.032 Y49.843
X24.096 Y49.494
X24.177 Y49.15
X24.275 Y48.81
X24.39 Y48.475
X24.521 Y48.146
X24.669 Y47.824
X24.834 Y47.511
X25.016 Y47.207
X25.213 Y46.913
X25.426 Y46.63
X25.652 Y46.358
X25.892 Y46.097
X26.144 Y45.848
X26.408 Y45.612
X26.683 Y45.39
X26.969 Y45.181
X27.265 Y44.986
X27.57 Y44.806
X27.883 Y44.641
X28.204 Y44.492
X28.533 Y44.359
X28.867 Y44.243
X29.207 Y44.144
X29.551 Y44.062
X29.9 Y43.998
X30.251 Y43.953
X30.604 Y43.927
X30.958 Y43.919
X31.312 Y43.929
X31.665 Y43.955
X32.016 Y43.999
X32.365 Y44.06
X32.711 Y44.137
X33.052 Y44.231
X33.388 Y44.342
X33.719 Y44.469
X34.043 Y44.611
X34.36 Y44.769
X34.669 Y44.942
X34.969 Y45.131
X35.259 Y45.334
X35.538 Y45.551
X35.806 Y45.783
X36.061 Y46.029
X36.302 Y46.288
X36.53 Y46.559
X36.745 Y46.84
X36.946 Y47.132
X37.132 Y47.433
X37.304 Y47.743
X37.461 Y48.06
X37.602 Y48.385
X37.728 Y48.716
X37.838 Y49.052
X37.931 Y49.394
X38.008 Y49.739
X38.068 Y50.088
X38.111 Y50.44
X38.137 Y50.793
X38.145 Y51.147
X38.134 Y51.501
X38.105 Y51.854
X38.057 Y52.204
X37.991 Y52.552
X37.909 Y52.897
X37.81 Y53.237
X37.694 Y53.571
X37.563 Y53.9
X37.417 Y54.222
X37.255 Y54.537
X37.078 Y54.844
X36.887 Y55.142
X36.681 Y55.431
X36.463 Y55.709
X36.231 Y55.977
X35.987 Y56.233
X35.73 Y56.477
X35.461 Y56.708
X35.182 Y56.925
X34.891 Y57.127
X34.59 Y57.313
X34.279 Y57.484
X33.961 Y57.639
X33.636 Y57.779
X33.304 Y57.903
X32.967 Y58.011
X32.625 Y58.103
X32.279 Y58.179
X31.93 Y58.238
X31.579 Y58.281
X31.226 Y58.307
X30.872 Y58.317
X30.518 Y58.309
X30.164 Y58.285
X29.813 Y58.244
X29.463 Y58.186
X29.118 Y58.11
X28.776 Y58.017
X28.44 Y57.906
X28.11 Y57.778
X27.786 Y57.633
X27.471 Y57.473
X27.163 Y57.299
X26.863 Y57.11
X26.573 Y56.907
X26.293 Y56.691
X26.023 Y56.462
X25.764 Y56.22
X25.516 Y55.967
X25.281 Y55.702
X25.059 Y55.427
X24.849 Y55.141
X24.654 Y54.846
X24.472 Y54.542
X24.306 Y54.229
X24.155 Y53.909
X24.02 Y53.582
X23.903 Y53.248
X23.803 Y52.908
X23.72 Y52.564
X23.653 Y52.216
X23.603 Y51.865
X23.569 Y51.513
X23.552 Y51.159
Y50.805
X23.567 Y50.452
X23.6 Y50.099
X23.649 Y49.748
X23.714 Y49.4
X23.795 Y49.055
X23.892 Y48.715
X24.005 Y48.379
X24.134 Y48.05
X24.278 Y47.726
X24.438 Y47.411
X24.615 Y47.104
X24.807 Y46.806
X25.013 Y46.518
X25.233 Y46.241
X25.466 Y45.974
X25.711 Y45.719
X25.968 Y45.475
X26.236 Y45.243
X26.514 Y45.024
X26.802 Y44.818
X27.099 Y44.626
X27.405 Y44.447
X27.719 Y44.284
X28.04 Y44.135
X28.368 Y44.001
X28.702 Y43.882
X29.041 Y43.78
X29.384 Y43.694
X29.731 Y43.625
X30.082 Y43.574
X30.434 Y43.541
X30.788 Y43.526
X31.142 Y43.527
X31.496 Y43.545
X31.848 Y43.579
X32.199 Y43.629
X32.547 Y43.695
X32.891 Y43.777
X33.231 Y43.875
X33.567 Y43.988
X33.897 Y44.116
X34.221 Y44.259
X34.537 Y44.418
X34.847 Y44.59
X35.148 Y44.777
X35.439 Y44.977
X35.721 Y45.192
X35.992 Y45.42
X36.251 Y45.661
X36.498 Y45.915
X36.731 Y46.181
X36.952 Y46.458
X37.16 Y46.744
X37.355 Y47.04
X37.536 Y47.344
X37.703 Y47.657
X37.856 Y47.976
X37.994 Y48.302
X38.117 Y48.634
X38.225 Y48.971
X38.317 Y49.313
X38.394 Y49.659
X38.455 Y50.008
X38.499 Y50.359
X38.528 Y50.712
X38.539 Y51.066
X38.534 Y51.42
X38.51 Y51.773
X38.469 Y52.125
X38.411 Y52.474
X38.336 Y52.82
X38.245 Y53.162
X38.138 Y53.5
X38.017 Y53.833
X37.88 Y54.159
X37.729 Y54.479
X37.564 Y54.792
X37.384 Y55.098
X37.191 Y55.395
X36.985 Y55.682
X36.766 Y55.961
X36.535 Y56.229
X36.291 Y56.486
X36.036 Y56.731
X35.77 Y56.965
X35.493 Y57.185
X35.205 Y57.392
X34.908 Y57.584
X34.601 Y57.76
X34.286 Y57.922
X33.964 Y58.07
X33.636 Y58.202
X33.302 Y58.32
X32.963 Y58.422
X32.619 Y58.509
X32.273 Y58.581
X31.923 Y58.637
X31.571 Y58.677
X31.218 Y58.702
X30.864 Y58.71
X30.51 Y58.703
X30.157 Y58.68
X29.805 Y58.641
X29.455 Y58.586
X29.108 Y58.514
X28.765 Y58.426
X28.427 Y58.321
X28.095 Y58.199
X27.769 Y58.061
X27.449 Y57.908
X27.137 Y57.741
X26.833 Y57.56
X26.537 Y57.365
X26.25 Y57.158
X25.973 Y56.938
X25.705 Y56.706
X25.448 Y56.462
X25.202 Y56.207
X24.968 Y55.942
X24.746 Y55.666
X24.536 Y55.381
X24.339 Y55.087
X24.156 Y54.784
X23.987 Y54.473
X23.832 Y54.154
X23.692 Y53.829
X23.569 Y53.497
X23.463 Y53.159
X23.372 Y52.817
X23.298 Y52.471
X23.239 Y52.122
X23.196 Y51.77
X23.168 Y51.417
X23.156 Y51.063
X23.16 Y50.709
X23.18 Y50.356
X23.215 Y50.003
X23.265 Y49.653
X23.331 Y49.305
X23.412 Y48.96
X23.509 Y48.62
X23.62 Y48.284
X23.747 Y47.953
X23.888 Y47.628
X24.044 Y47.311
X24.216 Y47.001
X24.402 Y46.7
X24.603 Y46.408
X24.817 Y46.126
X25.044 Y45.854
X25.283 Y45.593
X25.533 Y45.342
X25.793 Y45.102
X26.064 Y44.874
X26.345 Y44.659
X26.635 Y44.456
X26.934 Y44.265
X27.24 Y44.088
X27.555 Y43.925
X27.876 Y43.776
X28.203 Y43.642
X28.536 Y43.522
X28.875 Y43.417
X29.217 Y43.328
X29.564 Y43.254
X29.913 Y43.197
X30.265 Y43.158
X30.618 Y43.136
X30.972 Y43.129
X31.326 Y43.139
X31.68 Y43.164
X32.031 Y43.205
X32.381 Y43.26
X32.728 Y43.331
X33.071 Y43.417
X33.411 Y43.518
X33.745 Y43.634
X34.075 Y43.764
X34.398 Y43.908
X34.715 Y44.066
X35.025 Y44.237
X35.327 Y44.423
X35.62 Y44.621
X35.904 Y44.833
X36.178 Y45.057
X36.441 Y45.294
X36.692 Y45.544
X36.93 Y45.805
X37.157 Y46.077
X37.371 Y46.359
X37.573 Y46.65
X37.762 Y46.95
X37.938 Y47.257
X38.101 Y47.571
X38.25 Y47.893
X38.385 Y48.22
X38.505 Y48.553
X38.611 Y48.891
X38.703 Y49.233
X38.78 Y49.578
X38.841 Y49.927
X38.887 Y50.278
X38.918 Y50.631
X38.933 Y50.985
X38.932 Y51.339
X38.914 Y51.692
X38.879 Y52.045
X38.827 Y52.395
X38.759 Y52.742
X38.676 Y53.087
X38.577 Y53.427
X38.465 Y53.762
X38.337 Y54.093
X38.196 Y54.417
X38.041 Y54.736
X37.872 Y55.047
X37.691 Y55.351
X37.496 Y55.647
X37.289 Y55.934
X37.07 Y56.212
X36.838 Y56.48
X36.596 Y56.738
X36.342 Y56.985
X36.078 Y57.221
X35.804 Y57.445
X35.519 Y57.655
X35.225 Y57.852
X34.921 Y58.035
X34.61 Y58.203
X34.291 Y58.357
X33.966 Y58.497
X33.635 Y58.623
X33.299 Y58.734
X32.958 Y58.832
X32.614 Y58.914
X32.266 Y58.982
X31.916 Y59.035
X31.564 Y59.073
X31.211 Y59.097
X30.857 Y59.105
X30.503 Y59.098
X30.15 Y59.075
X29.798 Y59.038
X29.447 Y58.985
X29.1 Y58.917
X28.756 Y58.833
X28.416 Y58.733
X28.082 Y58.617
X27.753 Y58.486
X27.431 Y58.339
X27.115 Y58.179
X26.806 Y58.005
X26.505 Y57.819
X26.213 Y57.62
X25.929 Y57.408
X25.654 Y57.185
X25.389 Y56.95
X25.133 Y56.705
X24.889 Y56.449
X24.655 Y56.183
X24.433 Y55.907
X24.223 Y55.622
X24.025 Y55.328
X23.84 Y55.026
X23.668 Y54.717
X23.51 Y54.4
X23.366 Y54.076
X23.238 Y53.747
X23.125 Y53.411
X23.028 Y53.07
X22.947 Y52.726
X22.88 Y52.378
X22.828 Y52.028
X22.791 Y51.676
X22.769 Y51.322
X22.761 Y50.968
X22.769 Y50.614
X22.792 Y50.261
X22.829 Y49.909
X22.881 Y49.559
X22.948 Y49.211
X23.029 Y48.866
X23.125 Y48.525
X23.235 Y48.189
X23.36 Y47.857
X23.498 Y47.532
X23.651 Y47.212
X23.818 Y46.9
X23.999 Y46.596
X24.194 Y46.3
X24.403 Y46.014
X24.624 Y45.738
X24.857 Y45.471
X25.1 Y45.214
X25.354 Y44.967
X25.619 Y44.732
X25.893 Y44.507
X26.176 Y44.294
X26.467 Y44.094
X26.767 Y43.905
X27.075 Y43.73
X27.389 Y43.567
X27.71 Y43.418
X28.038 Y43.283
X28.37 Y43.161
X28.708 Y43.054
X29.049 Y42.962
X29.395 Y42.884
X29.744 Y42.822
X30.095 Y42.777
X30.448 Y42.748
X30.801 Y42.735
X31.155 Y42.737
X31.509 Y42.754
X31.862 Y42.786
X32.213 Y42.832
X32.562 Y42.893
X32.908 Y42.968
X33.25 Y43.058
X33.589 Y43.161
X33.923 Y43.279
X34.252 Y43.41
X34.575 Y43.555
X34.892 Y43.713
X35.202 Y43.884
X35.504 Y44.068
X35.799 Y44.264
X36.085 Y44.473
X36.361 Y44.695
X36.627 Y44.928
X36.883 Y45.173
X37.126 Y45.43
X37.358 Y45.698
X37.578 Y45.975
X37.787 Y46.261
X37.983 Y46.556
X38.167 Y46.859
X38.339 Y47.168
X38.497 Y47.485
X38.643 Y47.808
X38.775 Y48.136
X38.893 Y48.47
X38.998 Y48.808
X39.089 Y49.15
X39.165 Y49.496
X39.228 Y49.845
X39.275 Y50.195
X39.308 Y50.548
X39.326 Y50.902
X39.329 Y51.256
X39.316 Y51.61
X39.287 Y51.962
X39.241 Y52.314
X39.179 Y52.662
X39.103 Y53.008
X39.013 Y53.35
X38.908 Y53.689
X38.789 Y54.022
X38.657 Y54.351
X38.512 Y54.674
X38.353 Y54.99
X38.182 Y55.3
X37.998 Y55.603
X37.802 Y55.898
X37.594 Y56.184
X37.375 Y56.462
X37.144 Y56.731
X36.902 Y56.989
X36.65 Y57.238
X36.388 Y57.476
X36.115 Y57.702
X35.834 Y57.916
X35.543 Y58.118
X35.242 Y58.306
X34.934 Y58.479
X34.618 Y58.64
X34.296 Y58.787
X33.968 Y58.92
X33.635 Y59.041
X33.297 Y59.147
X32.956 Y59.24
X32.61 Y59.318
X32.262 Y59.383
X31.912 Y59.433
X31.56 Y59.47
X31.206 Y59.492
X30.852 Y59.499
X30.498 Y59.492
X30.145 Y59.471
X29.793 Y59.435
X29.442 Y59.385
X29.094 Y59.32
X28.749 Y59.24
X28.408 Y59.145
X28.071 Y59.035
X27.74 Y58.909
X27.415 Y58.769
X27.096 Y58.615
X26.784 Y58.448
X26.479 Y58.269
X26.181 Y58.077
X25.891 Y57.874
X25.61 Y57.659
X25.337 Y57.433
X25.074 Y57.196
X24.82 Y56.949
X24.577 Y56.692
X24.344 Y56.425
X24.122 Y56.149
X23.912 Y55.865
X23.713 Y55.572
X23.526 Y55.271
X23.352 Y54.963
X23.191 Y54.647
X23.043 Y54.326
X22.909 Y53.998
X22.791 Y53.664
X22.688 Y53.325
X22.599 Y52.983
X22.525 Y52.636
X22.465 Y52.287
X22.419 Y51.936
X22.388 Y51.584
X22.371 Y51.23
X22.367 Y50.876
X22.379 Y50.522
X22.404 Y50.169
X22.443 Y49.817
X22.497 Y49.467
X22.564 Y49.119
X22.645 Y48.775
X22.741 Y48.434
X22.849 Y48.097
X22.972 Y47.764
X23.107 Y47.437
X23.257 Y47.116
X23.42 Y46.802
X23.596 Y46.495
X23.786 Y46.196
X23.99 Y45.907
X24.205 Y45.626
X24.432 Y45.354
X24.67 Y45.091
X24.918 Y44.838
X25.175 Y44.596
X25.443 Y44.364
X25.719 Y44.142
X26.004 Y43.932
X26.297 Y43.734
X26.598 Y43.547
X26.906 Y43.372
X27.221 Y43.21
X27.542 Y43.061
X27.869 Y42.925
X28.201 Y42.802
X28.538 Y42.693
X28.879 Y42.597
X29.224 Y42.516
X29.571 Y42.449
X29.922 Y42.398
X30.274 Y42.363
X30.628 Y42.344
X30.982 Y42.339
X31.336 Y42.348
X31.689 Y42.372
X32.041 Y42.409
X32.391 Y42.461
X32.739 Y42.526
X33.084 Y42.605
X33.426 Y42.698
X33.764 Y42.804
X34.097 Y42.923
X34.426 Y43.055
X34.749 Y43.201
X35.066 Y43.358
X35.376 Y43.529
X35.679 Y43.711
X35.975 Y43.906
X36.263 Y44.113
X36.542 Y44.331
X36.811 Y44.561
X37.07 Y44.802
X37.318 Y45.055
X37.555 Y45.318
X37.78 Y45.591
X37.995 Y45.873
X38.198 Y46.163
X38.389 Y46.461
X38.569 Y46.766
X38.736 Y47.078
X38.891 Y47.396
X39.034 Y47.72
X39.164 Y48.05
X39.28 Y48.384
X39.384 Y48.722
X39.474 Y49.065
X39.551 Y49.411
X39.614 Y49.759
X39.663 Y50.11
X39.698 Y50.462
X39.718 Y50.815
X39.725 Y51.17
X39.716 Y51.523
X39.693 Y51.877
X39.653 Y52.229
X39.598 Y52.578
X39.528 Y52.926
X39.445 Y53.27
X39.348 Y53.61
X39.237 Y53.947
X39.114 Y54.278
X38.977 Y54.605
X38.828 Y54.926
X38.667 Y55.241
X38.493 Y55.55
X38.307 Y55.851
X38.11 Y56.146
X37.902 Y56.432
X37.682 Y56.709
X37.452 Y56.978
X37.211 Y57.238
X36.96 Y57.488
X36.7 Y57.728
X36.43 Y57.957
X36.15 Y58.174
X35.862 Y58.38
X35.565 Y58.573
X35.26 Y58.752
X34.947 Y58.918
X34.628 Y59.072
X34.303 Y59.213
X33.973 Y59.341
X33.638 Y59.455
X33.299 Y59.557
X32.956 Y59.646
X32.61 Y59.721
X32.262 Y59.783
X31.911 Y59.831
X31.558 Y59.866
X31.205 Y59.887
X30.851 Y59.894
X30.497 Y59.887
X30.143 Y59.867
X29.791 Y59.833
X29.44 Y59.785
X29.092 Y59.723
X28.746 Y59.647
X28.403 Y59.556
X28.065 Y59.451
X27.732 Y59.331
X27.405 Y59.197
X27.083 Y59.05
X26.767 Y58.889
X26.458 Y58.717
X26.155 Y58.533
X25.86 Y58.337
X25.573 Y58.13
X25.294 Y57.912
X25.023 Y57.684
X24.762 Y57.445
X24.51 Y57.196
X24.267 Y56.938
X24.035 Y56.671
X23.813 Y56.395
X23.602 Y56.111
X23.402 Y55.818
X23.214 Y55.519
X23.037 Y55.212
X22.873 Y54.898
X22.722 Y54.578
X22.583 Y54.252
X22.459 Y53.92
X22.35 Y53.583
X22.256 Y53.242
X22.175 Y52.898
X22.107 Y52.55
X22.053 Y52.2
X22.013 Y51.848
X21.987 Y51.495
X21.974 Y51.141
Y50.787
X21.988 Y50.433
X22.016 Y50.08
X22.057 Y49.729
X22.111 Y49.379
X22.179 Y49.031
X22.26 Y48.687
X22.355 Y48.345
X22.462 Y48.008
X22.582 Y47.675
X22.716 Y47.347
X22.862 Y47.025
X23.021 Y46.708
X23.193 Y46.399
X23.378 Y46.097
X23.576 Y45.804
X23.786 Y45.519
X24.008 Y45.242
X24.24 Y44.975
X24.482 Y44.716
X24.733 Y44.467
X24.994 Y44.228
X25.264 Y43.999
X25.543 Y43.78
X25.83 Y43.572
X26.124 Y43.376
X26.426 Y43.19
X26.734 Y43.017
X27.049 Y42.855
X27.37 Y42.705
X27.697 Y42.568
X28.028 Y42.444
X28.364 Y42.332
X28.704 Y42.234
X29.048 Y42.149
X29.395 Y42.079
X29.745 Y42.022
X29.931 Y42.001
X29.95 Y42.
X31.527
X31.881 Y42.018
X32.234 Y42.043
X32.584 Y42.095
X32.932 Y42.164
X33.276 Y42.247
X33.617 Y42.343
X33.954 Y42.452
X34.286 Y42.573
X34.614 Y42.707
X34.937 Y42.853
X35.253 Y43.011
X35.564 Y43.181
X35.868 Y43.363
X36.164 Y43.557
X36.453 Y43.762
X36.734 Y43.978
X37.005 Y44.205
X37.267 Y44.443
X37.519 Y44.692
X37.76 Y44.951
X37.99 Y45.22
X38.21 Y45.498
X38.418 Y45.784
X38.616 Y46.078
X38.802 Y46.379
X38.977 Y46.687
X39.14 Y47.001
X39.292 Y47.321
X39.431 Y47.647
X39.558 Y47.978
X39.672 Y48.313
X39.774 Y48.652
X39.863 Y48.994
X39.939 Y49.34
X39.998 Y49.668
X40. Y49.698
Y52.162
X39.982 Y52.516
X39.939 Y52.862
X39.867 Y53.209
X39.777 Y53.551
X39.674 Y53.89
X39.558 Y54.224
X39.429 Y54.554
X39.288 Y54.879
X39.134 Y55.198
X38.969 Y55.511
X38.793 Y55.818
X38.605 Y56.118
X38.406 Y56.411
X38.196 Y56.696
X37.976 Y56.974
X37.746 Y57.242
X37.505 Y57.502
X37.255 Y57.753
X36.995 Y57.994
X36.727 Y58.224
X36.449 Y58.444
X36.163 Y58.653
X35.869 Y58.85
X35.566 Y59.033
X35.256 Y59.205
X34.94 Y59.363
X34.617 Y59.51
X34.29 Y59.644
X33.957 Y59.766
X33.62 Y59.875
X33.28 Y59.972
X33.195 Y59.993
X33.175 Y59.997
X33.155 Y59.999
X33.135 Y60.
X28.952
X28.813 Y59.993
X28.628 Y59.977
X28.361 Y59.932
X28.017 Y59.845
X27.682 Y59.733
X27.352 Y59.604
X27.028 Y59.462
X26.71 Y59.307
X26.398 Y59.139
X26.092 Y58.96
X25.794 Y58.77
X25.502 Y58.569
X25.218 Y58.357
X24.943 Y58.135
X24.675 Y57.903
X24.416 Y57.661
X24.167 Y57.41
X23.927 Y57.15
X23.696 Y56.881
X23.476 Y56.604
X23.266 Y56.319
X23.066 Y56.026
X22.878 Y55.726
X22.701 Y55.42
X22.536 Y55.107
X22.382 Y54.787
X22.242 Y54.462
X22.115 Y54.132
X22.002 Y53.796
X21.902 Y53.456
X21.816 Y53.113
X21.744 Y52.766
X21.684 Y52.417
X21.638 Y52.066
X21.604 Y51.714
X21.584 Y51.36
X21.577 Y51.006
X21.582 Y50.652
X21.601 Y50.299
X21.632 Y49.946
X21.677 Y49.595
X21.734 Y49.245
X21.804 Y48.898
X21.887 Y48.554
X21.982 Y48.213
X22.09 Y47.876
X22.21 Y47.543
X22.343 Y47.214
X22.488 Y46.891
X22.645 Y46.574
X22.814 Y46.263
X22.997 Y45.96
X23.191 Y45.664
X23.397 Y45.376
X23.615 Y45.096
X23.842 Y44.825
X24.08 Y44.563
X24.327 Y44.309
X24.584 Y44.065
X24.849 Y43.831
X25.122 Y43.606
X25.404 Y43.391
X25.693 Y43.187
X25.99 Y42.993
X26.293 Y42.811
X26.603 Y42.639
X26.919 Y42.479
X27.24 Y42.331
X27.567 Y42.195
X27.899 Y42.071
X28.073 Y42.013
X28.099 Y42.006
X28.125 Y42.001
X28.152 Y42.
X29.95
X29.988 Y42.009
X30.02 Y42.032
X30.04 Y42.065
X30.046 Y42.103
X30.045 Y42.142 Z-5.492
X30.044 Y42.174 Z-5.471
X30.043 Y42.196 Z-5.438
Y42.203 Z-5.4
G0 Z5.
X40. Y52.062
Z-5.3
G1 Z-5.4 F1000.
Y52.07 Z-5.438
Y52.091 Z-5.471
Y52.124 Z-5.492
Y52.162 Z-5.5
Y53.77
X39.996 Y53.854
X39.98 Y54.003
X39.94 Y54.208
X39.864 Y54.484
X39.742 Y54.816
X39.6 Y55.141
X39.445 Y55.459
X39.277 Y55.771
X39.098 Y56.076
X38.909 Y56.375
X38.709 Y56.667
X38.498 Y56.952
X38.277 Y57.229
X38.047 Y57.498
X37.807 Y57.758
X37.558 Y58.01
X37.3 Y58.252
X37.033 Y58.485
X36.757 Y58.707
X36.473 Y58.919
X36.181 Y59.119
X35.881 Y59.307
X35.574 Y59.484
X35.26 Y59.648
X34.941 Y59.8
X34.616 Y59.94
X34.506 Y59.983
X34.476 Y59.992
X34.446 Y59.998
X34.415 Y60.
X33.135
X33.097 Y59.991
X33.066 Y59.968
X33.045 Y59.935
X33.039 Y59.897
X33.04 Y59.858 Z-5.492
X33.041 Y59.826 Z-5.471
X33.042 Y59.804 Z-5.438
Y59.797 Z-5.4
G0 Z5.
X40. Y52.754
Z-5.3
G1 Z-5.4 F1000.
Y52.761 Z-5.438
Y52.783 Z-5.471
Y52.816 Z-5.492
Y52.854 Z-5.5
Y53.77
Y54.815
X39.993 Y54.965
X39.964 Y55.113
X39.913 Y55.294
X39.817 Y55.552
X39.667 Y55.873
X39.495 Y56.183
X39.31 Y56.485
X39.114 Y56.78
X38.908 Y57.067
X38.692 Y57.348
X38.466 Y57.62
X38.231 Y57.885
X37.987 Y58.142
X37.734 Y58.389
X37.472 Y58.628
X37.202 Y58.857
X36.924 Y59.077
X36.639 Y59.285
X36.345 Y59.483
X36.044 Y59.67
X35.736 Y59.845
X35.492 Y59.972
X35.456 Y59.987
X35.417 Y59.997
X35.377 Y60.
X35.339 Y59.991
X35.307 Y59.968
X35.287 Y59.935
X35.281 Y59.897
X35.282 Y59.858 Z-5.492
X35.283 Y59.826 Z-5.471
X35.284 Y59.804 Z-5.438
Y59.797 Z-5.4
G0 Z5.
X40. Y54.03
Z-3.4
G1 Z-3.5 F1000.
Z-5.5
G2 Y54.815 R11.253
G1 Y55.664
X39.993 Y55.814
X39.963 Y55.961
X39.918 Y56.104
X39.837 Y56.307
X39.698 Y56.586
X39.515 Y56.889
X39.315 Y57.181
X39.104 Y57.465
X38.882 Y57.741
X38.652 Y58.01
X38.412 Y58.271
X38.164 Y58.524
X37.908 Y58.768
X37.643 Y59.003
X37.371 Y59.229
X37.091 Y59.446
X36.803 Y59.652
X36.508 Y59.848
X36.32 Y59.963
X36.279 Y59.983
X36.235 Y59.996
X36.189 Y60.
X36.151 Y59.991
X36.12 Y59.968
X36.099 Y59.935
X36.093 Y59.897
X36.094 Y59.858 Z-5.492
X36.095 Y59.826 Z-5.471
X36.096 Y59.804 Z-5.438
Y59.797 Z-5.4
G0 Z5.
X40. Y54.878
Z-3.4
G1 Z-3.5 F1000.
Z-5.5
G2 Y55.664 R11.253
G1 Y56.424
X39.993 Y56.573
X39.961 Y56.72
X39.913 Y56.862
X39.833 Y57.041
X39.704 Y57.279
X39.51 Y57.575
X39.297 Y57.858
X39.071 Y58.131
X38.837 Y58.396
X38.594 Y58.654
X38.342 Y58.903
X38.083 Y59.144
X37.816 Y59.376
X37.541 Y59.599
X37.259 Y59.813
X37.059 Y59.954
X37.014 Y59.979
X36.966 Y59.995
X36.915 Y60.
X36.877 Y59.991
X36.845 Y59.968
X36.825 Y59.935
X36.818 Y59.897
X36.82 Y59.858 Z-5.492
X36.821 Y59.826 Z-5.471
X36.822 Y59.804 Z-5.438
Y59.797 Z-5.4
G0 Z5.
X40. Y55.835
Z-3.4
G1 Z-3.5 F1000.
Z-5.5
G2 Y56.424 R8.44
G1 Y57.147
X39.993 Y57.297
X39.954 Y57.442
X39.898 Y57.581
X39.812 Y57.754
X39.671 Y57.984
X39.464 Y58.271
X39.237 Y58.543
X38.998 Y58.804
X38.751 Y59.058
X38.496 Y59.303
X38.233 Y59.54
X37.962 Y59.769
X37.739 Y59.946
X37.692 Y59.975
X37.639 Y59.994
X37.584 Y60.
X37.546 Y59.991 Z-5.45
X37.514 Y59.968 Z-5.4
X37.493 Y59.935 Z-5.35
X37.487 Y59.897 Z-5.3
X37.494 Y59.864
X37.511 Y59.836
X37.81 Y59.48
X39.536 Y57.429
X39.824 Y57.086
X39.844 Y57.068
X39.869 Y57.056
X39.897 Y57.051
X39.935 Y57.057 Z-5.35
X39.968 Y57.078 Z-5.4
X39.991 Y57.109 Z-5.45
X40. Y57.147 Z-5.5
Y57.79
X39.993 Y57.94
X39.953 Y58.085
X39.896 Y58.224
X39.811 Y58.384
X39.685 Y58.58
X39.471 Y58.862
X39.235 Y59.126
X38.988 Y59.379
X38.732 Y59.624
X38.468 Y59.86
X38.372 Y59.941
X38.323 Y59.973
X38.268 Y59.993
X38.211 Y60.
X38.173 Y59.991 Z-5.45
X38.141 Y59.968 Z-5.4
X38.12 Y59.935 Z-5.35
X38.114 Y59.897 Z-5.3
X38.12 Y59.865
X38.136 Y59.838
X38.428 Y59.473
X39.544 Y58.079
X39.822 Y57.731
X39.843 Y57.712
X39.868 Y57.699
X39.897 Y57.694
X39.935 Y57.7 Z-5.35
X39.968 Y57.721 Z-5.4
X39.991 Y57.753 Z-5.45
X40. Y57.79 Z-5.5
Y58.398
X39.993 Y58.547
X39.953 Y58.692
X39.895 Y58.83
X39.812 Y58.978
X39.694 Y59.155
X39.496 Y59.407
X39.255 Y59.666
X39. Y59.913
X38.975 Y59.936
X38.925 Y59.971
X38.868 Y59.993
X38.808 Y60.
X38.77 Y59.991 Z-5.45
X38.738 Y59.968 Z-5.4
X38.718 Y59.935 Z-5.35
X38.711 Y59.897 Z-5.3
X38.717 Y59.868
X38.73 Y59.841
X39.008 Y59.46
X39.56 Y58.699
X39.819 Y58.342
X39.84 Y58.321
X39.867 Y58.307
X39.897 Y58.301
X39.935 Y58.307 Z-5.35
X39.968 Y58.328 Z-5.4
X39.991 Y58.36 Z-5.45
X40. Y58.398 Z-5.5
Y58.997
X39.993 Y59.146
X39.949 Y59.29
X39.886 Y59.426
X39.798 Y59.574
X39.679 Y59.743
X39.538 Y59.91
X39.484 Y59.959
X39.418 Y59.989
X39.346 Y60.
X39.308 Y59.991 Z-5.45
X39.277 Y59.968 Z-5.4
X39.256 Y59.935 Z-5.35
X39.25 Y59.897 Z-5.3
X39.254 Y59.871
X39.265 Y59.848
X39.515 Y59.439
X39.589 Y59.317
X39.815 Y58.948
X39.836 Y58.923
X39.865 Y58.907
X39.897 Y58.9
X39.935 Y58.906 Z-5.35
X39.968 Y58.927 Z-5.4
X39.991 Y58.959 Z-5.45
X40. Y58.997 Z-5.5
Y59.559
Y59.604
Y59.64
X39.993 Y59.79
X39.963 Y59.854
X39.908 Y59.931
X39.828 Y59.982
X39.736 Y60.
X39.698 Y59.991 Z-5.45
X39.666 Y59.968 Z-5.4
X39.645 Y59.935 Z-5.35
X39.639 Y59.897 Z-5.3
X39.643 Y59.871
X39.654 Y59.847
X39.815 Y59.59
X39.837 Y59.566
X39.865 Y59.55
X39.897 Y59.543
X39.935 Y59.55 Z-5.35
X39.968 Y59.57 Z-5.4
X39.991 Y59.602 Z-5.45
X40. Y59.64 Z-5.5
Y59.881
X39.999 Y59.899
X39.996 Y59.917
X39.988 Y59.935
X39.976 Y59.953
X39.968 Y59.962
X39.95 Y59.975
X39.932 Y59.986
X39.914 Y59.994
X39.896 Y59.999
X39.815 Y60.
X34.415
X34.377 Y59.991
X34.345 Y59.968
X34.325 Y59.935
X34.319 Y59.897
X34.32 Y59.858 Z-5.492
X34.321 Y59.826 Z-5.471
X34.322 Y59.804 Z-5.438
Y59.797 Z-5.4
G0 Z5.
X31.427 Y42.
Z-5.3
G1 Z-5.4 F1000.
X31.435 Z-5.438
X31.457 Z-5.471
X31.489 Z-5.492
X31.527 Z-5.5
X33.459
X33.551 Y42.005
X33.714 Y42.022
X33.943 Y42.065
X34.258 Y42.151
X34.591 Y42.271
X34.917 Y42.409
X35.237 Y42.56
X35.552 Y42.722
X35.86 Y42.896
X36.162 Y43.082
X36.456 Y43.278
X36.743 Y43.486
X37.023 Y43.703
X37.293 Y43.932
X37.554 Y44.171
X37.806 Y44.42
X38.047 Y44.68
X38.278 Y44.948
X38.498 Y45.225
X38.709 Y45.51
X38.908 Y45.802
X39.097 Y46.102
X39.275 Y46.408
X39.442 Y46.72
X39.598 Y47.038
X39.742 Y47.362
X39.874 Y47.69
X39.985 Y47.999
X39.993 Y48.027
X39.998 Y48.055
X40. Y48.084
Y49.698
X39.991 Y49.736
X39.968 Y49.768
X39.935 Y49.788
X39.897 Y49.794
X39.858 Y49.793 Z-5.492
X39.826 Y49.792 Z-5.471
X39.804 Y49.791 Z-5.438
X39.797 Z-5.4
G0 Z5.
X32.18 Y42.
Z-5.3
G1 Z-5.4 F1000.
X32.188 Z-5.438
X32.21 Z-5.471
X32.242 Z-5.492
X32.28 Z-5.5
X33.459
X34.585
X34.735 Y42.007
X34.886 Y42.038
X35.083 Y42.094
X35.366 Y42.2
X35.687 Y42.351
X35.998 Y42.52
X36.302 Y42.702
X36.598 Y42.895
X36.888 Y43.099
X37.17 Y43.313
X37.443 Y43.538
X37.708 Y43.773
X37.964 Y44.018
X38.21 Y44.272
X38.447 Y44.536
X38.673 Y44.808
X38.89 Y45.088
X39.097 Y45.375
X39.294 Y45.67
X39.48 Y45.971
X39.655 Y46.278
X39.82 Y46.592
X39.979 Y46.921
X39.991 Y46.953
X39.998 Y46.987
X40. Y47.021
X39.991 Y47.059
X39.968 Y47.091
X39.935 Y47.112
X39.897 Y47.118
X39.858 Y47.117 Z-5.492
X39.826 Y47.115 Z-5.471
X39.804 Z-5.438
X39.797 Y47.114 Z-5.4
G0 Z5.
X33.8 Y42.
Z-3.4
G1 Z-3.5 F1000.
Z-5.5
G2 X34.585 R11.253
G1 X35.47
X35.62 Y42.007
X35.766 Y42.04
X35.923 Y42.091
X36.147 Y42.184
X36.461 Y42.345
X36.762 Y42.531
X37.054 Y42.731
X37.338 Y42.942
X37.614 Y43.164
X37.882 Y43.395
X38.141 Y43.636
X38.391 Y43.887
X38.632 Y44.147
X38.864 Y44.415
X39.085 Y44.691
X39.298 Y44.974
X39.5 Y45.264
X39.693 Y45.561
X39.876 Y45.864
X39.968 Y46.03
X39.986 Y46.068
X39.996 Y46.109
X40. Y46.152
X39.991 Y46.19
X39.968 Y46.221
X39.935 Y46.242
X39.897 Y46.248
X39.858 Y46.247 Z-5.492
X39.826 Y46.246 Z-5.471
X39.804 Y46.245 Z-5.438
X39.797 Z-5.4
G0 Z5.
X34.685 Y42.
Z-3.4
G1 Z-3.5 F1000.
Z-5.5
G2 X35.47 R11.253
G1 X36.239
X36.388 Y42.007
X36.535 Y42.041
X36.676 Y42.091
X36.869 Y42.178
X37.116 Y42.313
X37.412 Y42.508
X37.695 Y42.721
X37.968 Y42.945
X38.233 Y43.18
X38.49 Y43.424
X38.737 Y43.677
X38.976 Y43.939
X39.206 Y44.208
X39.426 Y44.485
X39.638 Y44.769
X39.84 Y45.06
X39.96 Y45.245
X39.982 Y45.288
X39.995 Y45.334
X40. Y45.381
X39.991 Y45.419
X39.968 Y45.451
X39.935 Y45.471
X39.897 Y45.478
X39.858 Y45.476 Z-5.492
X39.826 Y45.475 Z-5.471
X39.804 Z-5.438
X39.797 Y45.474 Z-5.4
G0 Z5.
X35.65 Y42.
Z-3.4
G1 Z-3.5 F1000.
Z-5.5
G2 X36.239 R8.44
G1 X36.919
X37.068 Y42.007
X37.215 Y42.039
X37.357 Y42.089
X37.523 Y42.167
X37.722 Y42.281
X38.013 Y42.479
X38.288 Y42.702
X38.552 Y42.937
X38.808 Y43.183
X39.054 Y43.437
X39.292 Y43.699
X39.521 Y43.969
X39.742 Y44.246
X39.955 Y44.533
X39.98 Y44.577
X39.995 Y44.625
X40. Y44.676
X39.991 Y44.714 Z-5.45
